;FLAVOR:Marlin
;TIME:3403
;Filament used: 2.13671m
;Layer height: 0.3
;Generated with Cura_SteamEngine 3.4.1
M104 S200
M109 S200
M82 ;absolute extrusion mode
G28 ;Home
G1 Z15.0 F6000 ;Move the platform down 15mm
;Prime the extruder
G92 E0
G1 F200 E3
G92 E0
G92 E0
;LAYER_COUNT:67
;LAYER:0
M107
G0 F800 X52.364 Y52.567 Z0.3
;TYPE:SKIRT
G1 F600 X52.756 Y52.201 E0.02676
G1 X53.198 Y51.898 E0.05349
G1 X53.681 Y51.663 E0.08029
G1 X54.192 Y51.503 E0.107
G1 X54.722 Y51.42 E0.13377
G1 X55.009 Y51.409 E0.1481
G1 X74.991 Y51.41 E1.145
G1 X75.526 Y51.45 E1.17177
G1 X76.049 Y51.569 E1.19853
G1 X76.548 Y51.764 E1.22526
G1 X77.013 Y52.032 E1.25203
G1 X77.433 Y52.365 E1.27877
G1 X77.799 Y52.757 E1.30553
G1 X78.103 Y53.199 E1.33229
G1 X78.337 Y53.682 E1.35907
G1 X78.497 Y54.194 E1.38583
G1 X78.58 Y54.723 E1.41255
G1 X78.591 Y55.01 E1.42688
G1 X78.591 Y74.991 E2.42373
G1 X78.551 Y75.526 E2.4505
G1 X78.432 Y76.049 E2.47726
G1 X78.237 Y76.548 E2.50399
G1 X77.969 Y77.013 E2.53076
G1 X77.636 Y77.433 E2.5575
G1 X77.244 Y77.799 E2.58426
G1 X76.802 Y78.102 E2.61099
G1 X76.319 Y78.337 E2.63779
G1 X75.808 Y78.497 E2.66451
G1 X75.278 Y78.58 E2.69127
G1 X74.991 Y78.591 E2.7056
G1 X55.009 Y78.591 E3.70251
G1 X54.474 Y78.551 E3.72927
G1 X53.951 Y78.432 E3.75603
G1 X53.452 Y78.237 E3.78276
G1 X52.987 Y77.969 E3.80954
G1 X52.567 Y77.636 E3.83628
G1 X52.201 Y77.244 E3.86303
G1 X51.898 Y76.802 E3.88977
G1 X51.663 Y76.319 E3.91657
G1 X51.503 Y75.808 E3.94328
G1 X51.42 Y75.278 E3.97004
G1 X51.409 Y74.991 E3.98437
G1 X51.409 Y55.009 E4.98128
G1 X51.449 Y54.474 E5.00804
G1 X51.568 Y53.951 E5.0348
G1 X51.763 Y53.452 E5.06153
G1 X52.031 Y52.987 E5.08831
G1 X52.364 Y52.567 E5.11505
G0 F800 X52.758 Y52.734
G1 F600 X53.145 Y52.408 E5.14029
G1 X53.578 Y52.147 E5.16552
G1 X54.046 Y51.957 E5.19072
G1 X54.539 Y51.844 E5.21595
G1 X55.009 Y51.809 E5.23946
G1 X74.991 Y51.81 E6.23637
G1 X75.495 Y51.85 E6.26159
G1 X75.987 Y51.969 E6.28685
G1 X76.453 Y52.164 E6.31205
G1 X76.883 Y52.429 E6.33725
G1 X77.266 Y52.76 E6.3625
G1 X77.592 Y53.146 E6.38771
G1 X77.853 Y53.579 E6.41293
G1 X78.043 Y54.048 E6.43818
G1 X78.156 Y54.54 E6.46337
G1 X78.191 Y55.01 E6.48688
G1 X78.191 Y74.991 E7.48374
G1 X78.151 Y75.495 E7.50896
G1 X78.032 Y75.986 E7.53416
G1 X77.838 Y76.453 E7.55939
G1 X77.572 Y76.883 E7.58462
G1 X77.242 Y77.266 E7.60984
G1 X76.855 Y77.592 E7.63509
G1 X76.422 Y77.853 E7.66031
G1 X75.954 Y78.043 E7.68551
G1 X75.461 Y78.156 E7.71074
G1 X74.991 Y78.191 E7.73426
G1 X55.009 Y78.191 E8.73116
G1 X54.505 Y78.151 E8.75639
G1 X54.014 Y78.032 E8.78159
G1 X53.547 Y77.838 E8.80682
G1 X53.117 Y77.572 E8.83205
G1 X52.734 Y77.242 E8.85727
G1 X52.408 Y76.855 E8.88251
G1 X52.147 Y76.422 E8.90774
G1 X51.957 Y75.954 E8.93294
G1 X51.844 Y75.461 E8.95817
G1 X51.809 Y74.991 E8.98168
G1 X51.809 Y55.009 E9.97859
G1 X51.849 Y54.505 E10.00381
G1 X51.968 Y54.014 E10.02902
G1 X52.162 Y53.547 E10.05425
G1 X52.428 Y53.117 E10.07947
G1 X52.758 Y52.734 E10.1047
G0 F800 X55.614 Y54.335
G0 X55.614 Y55.614
G0 X72 Y72
;TYPE:WALL-INNER
G1 F600 X58 Y72 E10.80316
G1 X58 Y58 E11.50162
G1 X72 Y58 E12.20008
G1 X72 Y72 E12.89855
G0 F800 X72.4 Y72.4
G1 F600 X57.6 Y72.4 E13.63692
G1 X57.6 Y57.6 E14.3753
G1 X72.4 Y57.6 E15.11367
G1 X72.4 Y72.4 E15.85205
G0 F800 X72.8 Y72.8
G1 F600 X57.2 Y72.8 E16.63033
G1 X57.2 Y57.2 E17.40862
G1 X72.8 Y57.2 E18.18691
G1 X72.8 Y72.8 E18.9652
G0 F800 X73.2 Y73.2
G1 F600 X56.8 Y73.2 E19.78339
G1 X56.8 Y56.8 E20.60159
G1 X73.2 Y56.8 E21.41979
G1 X73.2 Y73.2 E22.23799
G0 F800 X73.6 Y73.6
G1 F600 X56.4 Y73.6 E23.0961
G1 X56.4 Y56.4 E23.95422
G1 X73.6 Y56.4 E24.81233
G1 X73.6 Y73.6 E25.67044
G0 F800 X74 Y74
G1 F600 X56 Y74 E26.56846
G1 X56 Y56 E27.46649
G1 X74 Y56 E28.36451
G1 X74 Y74 E29.26253
G0 F800 X74.4 Y74.4
G1 F600 X55.6 Y74.4 E30.20047
G1 X55.6 Y55.6 E31.1384
G1 X74.4 Y55.6 E32.07634
G1 X74.4 Y74.4 E33.01428
G0 F800 X74.8 Y74.8
;TYPE:WALL-OUTER
G1 F600 X55.2 Y74.8 E33.99212
G1 X55.2 Y55.2 E34.96997
G1 X74.8 Y55.2 E35.94782
G1 X74.8 Y74.8 E36.92567
G0 F800 X74.6 Y74.8
G0 X74.36 Y74.36
G0 X74.3 Y74.36
G0 X71.61 Y71.61
;TYPE:SKIN
G1 F600 X58.39 Y71.61 E37.58522
G1 X58.39 Y58.39 E38.24477
G1 X71.61 Y58.39 E38.90431
G1 X71.61 Y71.61 E39.56386
G0 F800 X71.429 Y58.984
G1 F600 X71.014 Y58.569 E39.59314
G0 F800 X70.449 Y58.569
G1 F600 X71.429 Y59.55 E39.66232
G1 X71.499 Y59.62
G0 F800 X71.429 Y60.116
G1 F600 X69.883 Y58.569 E39.77144
G1 X69.813 Y58.499
G0 F800 X69.317 Y58.569
G1 F600 X71.429 Y60.681 E39.92045
G1 X71.499 Y60.751
G0 F800 X71.429 Y61.247
G1 F600 X68.751 Y58.569 E40.1094
G1 X68.681 Y58.499
G0 F800 X68.186 Y58.569
G1 F600 X71.429 Y61.813 E40.33824
G1 X71.499 Y61.883
G0 F800 X71.429 Y62.378
G1 F600 X67.62 Y58.569 E40.60699
G1 X67.55 Y58.499
G0 F800 X67.054 Y58.569
G1 F600 X71.429 Y62.944 E40.91567
G1 X71.499 Y63.014
G0 F800 X71.429 Y63.51
G1 F600 X66.489 Y58.569 E41.26425
G1 X66.419 Y58.499
G0 F800 X65.923 Y58.569
G1 F600 X71.429 Y64.075 E41.65273
G1 X71.499 Y64.145
G0 F800 X71.429 Y64.641
G1 F600 X65.357 Y58.569 E42.08114
G1 X65.287 Y58.499
G0 F800 X64.792 Y58.569
G1 F600 X71.429 Y65.207 E42.54945
G1 X71.499 Y65.277
G0 F800 X71.429 Y65.772
G1 F600 X64.226 Y58.569 E43.05766
G1 X64.156 Y58.499
G0 F800 X63.66 Y58.569
G1 F600 X71.429 Y66.338 E43.6058
G1 X71.499 Y66.408
G0 F800 X71.429 Y66.904
G1 F600 X63.095 Y58.569 E44.19385
G1 X63.025 Y58.499
G0 F800 X62.529 Y58.569
G1 F600 X71.429 Y67.47 E44.82183
G1 X71.499 Y67.54
G0 F800 X71.429 Y68.035
G1 F600 X61.963 Y58.569 E45.4897
G1 X61.893 Y58.499
G0 F800 X61.398 Y58.569
G1 F600 X71.429 Y68.601 E46.19748
G1 X71.499 Y68.671
G0 F800 X71.429 Y69.167
G1 F600 X60.832 Y58.569 E46.94519
G1 X60.762 Y58.499
G0 F800 X60.266 Y58.569
G1 F600 X71.429 Y69.732 E47.7328
G1 X71.499 Y69.802
G0 F800 X71.429 Y70.298
G1 F600 X59.701 Y58.569 E48.56031
G1 X59.631 Y58.499
G0 F800 X59.135 Y58.569
G1 F600 X71.429 Y70.864 E49.42775
G1 X71.499 Y70.934
G0 F800 X71.429 Y71.429
G1 F600 X58.569 Y58.569 E50.3351
G1 X58.499 Y58.499
G0 F800 X58.569 Y59.135
G1 F600 X70.863 Y71.429 E51.2025
G1 X70.933 Y71.499
G0 F800 X70.297 Y71.429
G1 F600 X58.569 Y59.701 E52.02998
G1 X58.499 Y59.631
G0 F800 X58.569 Y60.266
G1 F600 X69.732 Y71.429 E52.81759
G1 X69.802 Y71.499
G0 F800 X69.166 Y71.429
G1 F600 X58.569 Y60.832 E53.56526
G1 X58.499 Y60.762
G0 F800 X58.569 Y61.398
G1 F600 X68.6 Y71.429 E54.27301
G1 X68.67 Y71.499
G0 F800 X68.034 Y71.429
G1 F600 X58.569 Y61.963 E54.94085
G1 X58.499 Y61.893
G0 F800 X58.569 Y62.529
G1 F600 X67.469 Y71.429 E55.56879
G1 X67.539 Y71.499
G0 F800 X66.903 Y71.429
G1 F600 X58.569 Y63.095 E56.1568
G1 X58.499 Y63.025
G0 F800 X58.569 Y63.66
G1 F600 X66.337 Y71.429 E56.70491
G1 X66.407 Y71.499
G0 F800 X65.772 Y71.429
G1 F600 X58.569 Y64.226 E57.21312
G1 X58.499 Y64.156
G0 F800 X58.569 Y64.792
G1 F600 X65.206 Y71.429 E57.6814
G1 X65.276 Y71.499
G0 F800 X64.64 Y71.429
G1 F600 X58.569 Y65.357 E58.10977
G1 X58.499 Y65.287
G0 F800 X58.569 Y65.923
G1 F600 X64.075 Y71.429 E58.49825
G1 X64.145 Y71.499
G0 F800 X63.509 Y71.429
G1 F600 X58.569 Y66.489 E58.84679
G1 X58.499 Y66.419
G0 F800 X58.569 Y67.054
G1 F600 X62.943 Y71.429 E59.15544
G1 X63.013 Y71.499
G0 F800 X62.378 Y71.429
G1 F600 X58.569 Y67.62 E59.42418
G1 X58.499 Y67.55
G0 F800 X58.569 Y68.186
G1 F600 X61.812 Y71.429 E59.653
G1 X61.882 Y71.499
G0 F800 X61.246 Y71.429
G1 F600 X58.569 Y68.751 E59.84191
G1 X58.499 Y68.681
G0 F800 X58.569 Y69.317
G1 F600 X60.681 Y71.429 E59.99092
G1 X60.751 Y71.499
G0 F800 X60.115 Y71.429
G1 F600 X58.569 Y69.883 E60.1
G1 X58.499 Y69.813
G0 F800 X58.569 Y70.449
G1 F600 X59.549 Y71.429 E60.16914
G1 X59.619 Y71.499
G0 F800 X58.984 Y71.429
G1 F600 X58.569 Y71.014 E60.19842
G0 F800 X72 Y72
;TIME_ELAPSED:133.264318
;LAYER:1
M106 S63.8
G0 F1000 X72 Y72 Z0.6
;TYPE:WALL-INNER
G1 F750 X58 Y72 E60.89689
G1 X58 Y58 E61.59535
G1 X72 Y58 E62.29381
G1 X72 Y72 E62.99228
G0 F1000 X72.4 Y72.4
G1 F750 X57.6 Y72.4 E63.73065
G1 X57.6 Y57.6 E64.46903
G1 X72.4 Y57.6 E65.2074
G1 X72.4 Y72.4 E65.94578
G0 F1000 X72.8 Y72.8
G1 F750 X57.2 Y72.8 E66.72406
G1 X57.2 Y57.2 E67.50235
G1 X72.8 Y57.2 E68.28064
G1 X72.8 Y72.8 E69.05892
G0 F1000 X73.2 Y73.2
G1 F750 X56.8 Y73.2 E69.87712
G1 X56.8 Y56.8 E70.69532
G1 X73.2 Y56.8 E71.51352
G1 X73.2 Y73.2 E72.33172
G0 F1000 X73.6 Y73.6
G1 F750 X56.4 Y73.6 E73.18983
G1 X56.4 Y56.4 E74.04794
G1 X73.6 Y56.4 E74.90606
G1 X73.6 Y73.6 E75.76417
G0 F1000 X74 Y74
G1 F750 X56 Y74 E76.66219
G1 X56 Y56 E77.56021
G1 X74 Y56 E78.45824
G1 X74 Y74 E79.35626
G0 F1000 X74.4 Y74.4
G1 F750 X55.6 Y74.4 E80.2942
G1 X55.6 Y55.6 E81.23213
G1 X74.4 Y55.6 E82.17007
G1 X74.4 Y74.4 E83.10801
G0 F1000 X74.8 Y74.8
;TYPE:WALL-OUTER
G1 F600 X55.2 Y74.8 E84.08585
G1 X55.2 Y55.2 E85.0637
G1 X74.8 Y55.2 E86.04155
G1 X74.8 Y74.8 E87.0194
G0 F1000 X74.6 Y74.8
G0 X74.36 Y74.36
G0 X74.3 Y74.36
G0 X71.61 Y71.61
;TYPE:SKIN
G1 F600 X58.39 Y71.61 E87.67895
G1 X58.39 Y58.39 E88.33849
G1 X71.61 Y58.39 E88.99804
G1 X71.61 Y71.61 E89.65759
G0 F1000 X71.429 Y71.123
G1 F600 X71.122 Y71.429 E89.67922
G0 F1000 X70.557 Y71.429
G1 F600 X71.429 Y70.557 E89.74074
G1 X71.499 Y70.487
G0 F1000 X71.429 Y69.992
G1 F600 X69.991 Y71.429 E89.84216
G1 X69.921 Y71.499
G0 F1000 X69.425 Y71.429
G1 F600 X71.429 Y69.426 E89.98352
G1 X71.499 Y69.356
G0 F1000 X71.429 Y68.86
G1 F600 X68.86 Y71.429 E90.16478
G1 X68.79 Y71.499
G0 F1000 X68.294 Y71.429
G1 F600 X71.429 Y68.295 E90.38593
G1 X71.499 Y68.225
G0 F1000 X71.429 Y67.729
G1 F600 X67.728 Y71.429 E90.64702
G1 X67.658 Y71.499
G0 F1000 X67.163 Y71.429
G1 F600 X71.429 Y67.163 E90.94801
G1 X71.499 Y67.093
G0 F1000 X71.429 Y66.598
G1 F600 X66.597 Y71.429 E91.2889
G1 X66.527 Y71.499
G0 F1000 X66.031 Y71.429
G1 F600 X71.429 Y66.032 E91.66973
G1 X71.499 Y65.962
G0 F1000 X71.429 Y65.466
G1 F600 X65.466 Y71.429 E92.09045
G1 X65.396 Y71.499
G0 F1000 X64.9 Y71.429
G1 F600 X71.429 Y64.901 E92.55107
G1 X71.499 Y64.831
G0 F1000 X71.429 Y64.335
G1 F600 X64.334 Y71.429 E93.05162
G1 X64.264 Y71.499
G0 F1000 X63.769 Y71.429
G1 F600 X71.429 Y63.769 E93.59208
G1 X71.499 Y63.699
G0 F1000 X71.429 Y63.204
G1 F600 X63.203 Y71.429 E94.17243
G1 X63.133 Y71.499
G0 F1000 X62.637 Y71.429
G1 F600 X71.429 Y62.638 E94.79272
G1 X71.499 Y62.568
G0 F1000 X71.429 Y62.072
G1 F600 X62.071 Y71.429 E95.45294
G1 X62.001 Y71.499
G0 F1000 X61.506 Y71.429
G1 F600 X71.429 Y61.506 E96.15306
G1 X71.499 Y61.436
G0 F1000 X71.429 Y60.941
G1 F600 X60.94 Y71.429 E96.89308
G1 X60.87 Y71.499
G0 F1000 X60.374 Y71.429
G1 F600 X71.429 Y60.375 E97.67304
G1 X71.499 Y60.305
G0 F1000 X71.429 Y59.809
G1 F600 X59.809 Y71.429 E98.49289
G1 X59.739 Y71.499
G0 F1000 X59.243 Y71.429
G1 F600 X71.429 Y59.244 E99.35264
G1 X71.499 Y59.174
G0 F1000 X71.429 Y58.678
G1 F600 X58.677 Y71.429 E100.25233
G1 X58.607 Y71.499
G0 F1000 X58.569 Y70.972
G1 F600 X70.972 Y58.569 E101.12743
G1 X71.042 Y58.499
G0 F1000 X70.406 Y58.569
G1 F600 X58.569 Y70.406 E101.96259
G1 X58.499 Y70.476
G0 F1000 X58.569 Y69.84
G1 F600 X69.84 Y58.569 E102.75782
G1 X69.91 Y58.499
G0 F1000 X69.275 Y58.569
G1 F600 X58.569 Y69.275 E103.51319
G1 X58.499 Y69.345
G0 F1000 X58.569 Y68.709
G1 F600 X68.709 Y58.569 E104.22862
G1 X68.779 Y58.499
G0 F1000 X68.143 Y58.569
G1 F600 X58.569 Y68.143 E104.90412
G1 X58.499 Y68.213
G0 F1000 X58.569 Y67.578
G1 F600 X67.578 Y58.569 E105.53975
G1 X67.648 Y58.499
G0 F1000 X67.012 Y58.569
G1 F600 X58.569 Y67.012 E106.13545
G1 X58.499 Y67.082
G0 F1000 X58.569 Y66.446
G1 F600 X66.446 Y58.569 E106.69122
G1 X66.516 Y58.499
G0 F1000 X65.881 Y58.569
G1 F600 X58.569 Y65.881 E107.20712
G1 X58.499 Y65.951
G0 F1000 X58.569 Y65.315
G1 F600 X65.315 Y58.569 E107.68309
G1 X65.385 Y58.499
G0 F1000 X64.749 Y58.569
G1 F600 X58.569 Y64.749 E108.11912
G1 X58.499 Y64.819
G0 F1000 X58.569 Y64.184
G1 F600 X64.184 Y58.569 E108.51529
G1 X64.254 Y58.499
G0 F1000 X63.618 Y58.569
G1 F600 X58.569 Y63.618 E108.87152
G1 X58.499 Y63.688
G0 F1000 X58.569 Y63.052
G1 F600 X63.052 Y58.569 E109.18782
G1 X63.122 Y58.499
G0 F1000 X62.487 Y58.569
G1 F600 X58.569 Y62.487 E109.46426
G1 X58.499 Y62.557
G0 F1000 X58.569 Y61.921
G1 F600 X61.921 Y58.569 E109.70076
G1 X61.991 Y58.499
G0 F1000 X61.355 Y58.569
G1 F600 X58.569 Y61.355 E109.89733
G1 X58.499 Y61.425
G0 F1000 X58.569 Y60.789
G1 F600 X60.789 Y58.569 E110.05396
G1 X60.859 Y58.499
G0 F1000 X60.224 Y58.569
G1 F600 X58.569 Y60.224 E110.17073
G1 X58.499 Y60.294
G0 F1000 X58.569 Y59.658
G1 F600 X59.658 Y58.569 E110.24756
G1 X59.728 Y58.499
G0 F1000 X59.092 Y58.569
G1 F600 X58.569 Y59.092 E110.28446
G0 F1000 X72 Y72
;TIME_ELAPSED:228.206826
;LAYER:2
M106 S127.5
G0 F1200 X72 Y72 Z0.9
;TYPE:WALL-INNER
G1 F900 X58 Y72 E110.98293
G1 X58 Y58 E111.68139
G1 X72 Y58 E112.37985
G1 X72 Y72 E113.07831
G0 F1200 X72.4 Y72.4
G1 F900 X57.6 Y72.4 E113.81669
G1 X57.6 Y57.6 E114.55506
G1 X72.4 Y57.6 E115.29344
G1 X72.4 Y72.4 E116.03181
G0 F1200 X72.8 Y72.8
G1 F900 X57.2 Y72.8 E116.8101
G1 X57.2 Y57.2 E117.58839
G1 X72.8 Y57.2 E118.36668
G1 X72.8 Y72.8 E119.14496
G0 F1200 X73.2 Y73.2
G1 F900 X56.8 Y73.2 E119.96316
G1 X56.8 Y56.8 E120.78136
G1 X73.2 Y56.8 E121.59956
G1 X73.2 Y73.2 E122.41776
G0 F1200 X73.6 Y73.6
G1 F900 X56.4 Y73.6 E123.27587
G1 X56.4 Y56.4 E124.13398
G1 X73.6 Y56.4 E124.99209
G1 X73.6 Y73.6 E125.85021
G0 F1200 X74 Y74
G1 F900 X56 Y74 E126.74823
G1 X56 Y56 E127.64625
G1 X74 Y56 E128.54428
G1 X74 Y74 E129.4423
G0 F1200 X74.4 Y74.4
G1 F900 X55.6 Y74.4 E130.38024
G1 X55.6 Y55.6 E131.31817
G1 X74.4 Y55.6 E132.25611
G1 X74.4 Y74.4 E133.19404
G0 F1200 X74.8 Y74.8
;TYPE:WALL-OUTER
G1 F600 X55.2 Y74.8 E134.17189
G1 X55.2 Y55.2 E135.14974
G1 X74.8 Y55.2 E136.12759
G1 X74.8 Y74.8 E137.10544
G0 F1200 X74.6 Y74.8
G0 X74.36 Y74.36
G0 X74.3 Y74.36
G0 X71.61 Y71.61
;TYPE:SKIN
G1 F600 X58.39 Y71.61 E137.76498
G1 X58.39 Y58.39 E138.42453
G1 X71.61 Y58.39 E139.08408
G1 X71.61 Y71.61 E139.74363
G0 F1200 X71.429 Y58.984
G1 F600 X71.014 Y58.569 E139.77291
G0 F1200 X70.449 Y58.569
G1 F600 X71.429 Y59.55 E139.84209
G1 X71.499 Y59.62
G0 F1200 X71.429 Y60.116
G1 F600 X69.883 Y58.569 E139.9512
G1 X69.813 Y58.499
G0 F1200 X69.317 Y58.569
G1 F600 X71.429 Y60.681 E140.10022
G1 X71.499 Y60.751
G0 F1200 X71.429 Y61.247
G1 F600 X68.751 Y58.569 E140.28916
G1 X68.681 Y58.499
G0 F1200 X68.186 Y58.569
G1 F600 X71.429 Y61.813 E140.51801
G1 X71.499 Y61.883
G0 F1200 X71.429 Y62.378
G1 F600 X67.62 Y58.569 E140.78676
G1 X67.55 Y58.499
G0 F1200 X67.054 Y58.569
G1 F600 X71.429 Y62.944 E141.09544
G1 X71.499 Y63.014
G0 F1200 X71.429 Y63.51
G1 F600 X66.489 Y58.569 E141.44401
G1 X66.419 Y58.499
G0 F1200 X65.923 Y58.569
G1 F600 X71.429 Y64.075 E141.83249
G1 X71.499 Y64.145
G0 F1200 X71.429 Y64.641
G1 F600 X65.357 Y58.569 E142.26091
G1 X65.287 Y58.499
G0 F1200 X64.792 Y58.569
G1 F600 X71.429 Y65.207 E142.72922
G1 X71.499 Y65.277
G0 F1200 X71.429 Y65.772
G1 F600 X64.226 Y58.569 E143.23743
G1 X64.156 Y58.499
G0 F1200 X63.66 Y58.569
G1 F600 X71.429 Y66.338 E143.78557
G1 X71.499 Y66.408
G0 F1200 X71.429 Y66.904
G1 F600 X63.095 Y58.569 E144.37362
G1 X63.025 Y58.499
G0 F1200 X62.529 Y58.569
G1 F600 X71.429 Y67.47 E145.00159
G1 X71.499 Y67.54
G0 F1200 X71.429 Y68.035
G1 F600 X61.963 Y58.569 E145.66947
G1 X61.893 Y58.499
G0 F1200 X61.398 Y58.569
G1 F600 X71.429 Y68.601 E146.37725
G1 X71.499 Y68.671
G0 F1200 X71.429 Y69.167
G1 F600 X60.832 Y58.569 E147.12496
G1 X60.762 Y58.499
G0 F1200 X60.266 Y58.569
G1 F600 X71.429 Y69.732 E147.91257
G1 X71.499 Y69.802
G0 F1200 X71.429 Y70.298
G1 F600 X59.701 Y58.569 E148.74008
G1 X59.631 Y58.499
G0 F1200 X59.135 Y58.569
G1 F600 X71.429 Y70.864 E149.60752
G1 X71.499 Y70.934
G0 F1200 X71.429 Y71.429
G1 F600 X58.569 Y58.569 E150.51486
G1 X58.499 Y58.499
G0 F1200 X58.569 Y59.135
G1 F600 X70.863 Y71.429 E151.38227
G1 X70.933 Y71.499
G0 F1200 X70.297 Y71.429
G1 F600 X58.569 Y59.701 E152.20975
G1 X58.499 Y59.631
G0 F1200 X58.569 Y60.266
G1 F600 X69.732 Y71.429 E152.99736
G1 X69.802 Y71.499
G0 F1200 X69.166 Y71.429
G1 F600 X58.569 Y60.832 E153.74503
G1 X58.499 Y60.762
G0 F1200 X58.569 Y61.398
G1 F600 X68.6 Y71.429 E154.45277
G1 X68.67 Y71.499
G0 F1200 X68.034 Y71.429
G1 F600 X58.569 Y61.963 E155.12061
G1 X58.499 Y61.893
G0 F1200 X58.569 Y62.529
G1 F600 X67.469 Y71.429 E155.74856
G1 X67.539 Y71.499
G0 F1200 X66.903 Y71.429
G1 F600 X58.569 Y63.095 E156.33657
