;GCode file generated by SlicerPy 2020 written by Brian Minnick
M104 S190
M109 S190
M82
M201 X100 Y100
G28 X Z
G92 E0
G1 F3600 E-6.5
G0 F750 X10 Y10 Z0.3
M204 S100
G1 F2400 E0
G1 X195.5 E8.607889
G0 X193.750000 E8.687889
G1 Y58.333333 E10.930735
G0 X193.250000
G1 Y10.000000 E13.173581
G0 X192.750000
G1 Y58.333333 E15.416427
G0 X192.250000
G1 Y10.000000 E17.659273
G0 X190.500000 E17.739273 ;end of channel value 0
G0 X190.200000 ;end of channel value 0
G1 Y58.333333 E19.982119
G0 X185.800000 E20.192119
G1 Y10.000000 E22.434965
G0 X185.500000 ;end of channel value 0
G0 X185.200000 ;end of channel value 0
G1 Y58.333333 E24.677811
G0 X180.800000 E24.887811
G1 Y10.000000 E27.130657
G0 X180.500000 ;end of channel value 0
G0 X178.750000 E27.210657
G1 Y58.333333 E29.453503
G0 X178.250000
G1 Y10.000000 E31.696350
G0 X177.750000
G1 Y58.333333 E33.939196
G0 X177.250000
G1 Y10.000000 E36.182042
G0 X175.500000 E36.262042 ;end of channel value 0
G0 X173.750000 E36.342042
G1 Y58.333333 E38.584888
G0 X173.250000
G1 Y10.000000 E40.827734
G0 X172.750000
G1 Y58.333333 E43.070580
G0 X172.250000
G1 Y10.000000 E45.313426
G0 X170.500000 E45.393426 ;end of channel value 0
G0 X168.750000 E45.473426
G1 Y58.333333 E47.716272
G0 X168.250000
G1 Y10.000000 E49.959118
G0 X167.750000
G1 Y58.333333 E52.201964
G0 X167.250000
G1 Y10.000000 E54.444811
G0 X165.500000 E54.524811 ;end of channel value 0
G0 X163.750000 E54.604811
G1 Y58.333333 E56.847657
G0 X163.250000
G1 Y10.000000 E59.090503
G0 X162.750000
G1 Y58.333333 E61.333349
G0 X162.250000
G1 Y10.000000 E63.576195
G0 X160.500000 E63.656195 ;end of channel value 0
G0 X158.750000 E63.736195
G1 Y58.333333 E65.979041
G0 X158.250000
G1 Y10.000000 E68.221887
G0 X157.750000
G1 Y58.333333 E70.464733
G0 X157.250000
G1 Y10.000000 E72.707579
G0 X155.500000 E72.787579 ;end of channel value 0
G0 X153.750000 E72.867579
G1 Y58.333333 E75.110425
G0 X153.250000
G1 Y10.000000 E77.353271
G0 X152.750000
G1 Y58.333333 E79.596118
G0 X152.250000
G1 Y10.000000 E81.838964
G0 X150.500000 E81.918964 ;end of channel value 0
G0 X148.750000 E81.998964
G1 Y58.333333 E84.241810
G0 X148.250000
G1 Y10.000000 E86.484656
G0 X147.750000
G1 Y58.333333 E88.727502
G0 X147.250000
G1 Y10.000000 E90.970348
G0 X145.500000 E91.050348 ;end of channel value 0
G0 X143.750000 E91.130348
G1 Y58.333333 E93.373194
G0 X143.250000
G1 Y10.000000 E95.616040
G0 X142.750000
G1 Y58.333333 E97.858886
G0 X142.250000
G1 Y10.000000 E100.101732
G0 X140.500000 E100.181732 ;end of channel value 0
G0 X138.750000 E100.261732
G1 Y58.333333 E102.504578
G0 X138.250000
G1 Y10.000000 E104.747425
G0 X137.750000
G1 Y58.333333 E106.990271
G0 X137.250000
G1 Y10.000000 E109.233117
G0 X135.500000 E109.313117 ;end of channel value 0
G0 X133.750000 E109.393117
G1 Y58.333333 E111.635963
G0 X133.250000
G1 Y10.000000 E113.878809
G0 X132.750000
G1 Y58.333333 E116.121655
G0 X132.250000
G1 Y10.000000 E118.364501
G0 X130.500000 E118.444501 ;end of channel value 0
G0 X128.750000 E118.524501
G1 Y58.333333 E120.767347
G0 X128.250000
G1 Y10.000000 E123.010193
G0 X127.750000
G1 Y58.333333 E125.253039
G0 X127.250000
G1 Y10.000000 E127.495886
G0 X125.500000 E127.575886 ;end of channel value 0
G0 X123.750000 E127.655886
G1 Y58.333333 E129.898732
G0 X123.250000
G1 Y10.000000 E132.141578
G0 X122.750000
G1 Y58.333333 E134.384424
G0 X122.250000
G1 Y10.000000 E136.627270
G0 X120.500000 E136.707270 ;end of channel value 0
G0 X118.750000 E136.787270
G1 Y58.333333 E139.030116
G0 X118.250000
G1 Y10.000000 E141.272962
G0 X117.750000
G1 Y58.333333 E143.515808
G0 X117.250000
G1 Y10.000000 E145.758654
G0 X115.500000 E145.838654 ;end of channel value 0
G0 X113.750000 E145.918654
G1 Y58.333333 E148.161500
G0 X113.250000
G1 Y10.000000 E150.404346
G0 X112.750000
G1 Y58.333333 E152.647193
G0 X112.250000
G1 Y10.000000 E154.890039
G0 X110.500000 E154.970039 ;end of channel value 0
G0 X108.750000 E155.050039
G1 Y58.333333 E157.292885
G0 X108.250000
G1 Y10.000000 E159.535731
G0 X107.750000
G1 Y58.333333 E161.778577
G0 X107.250000
G1 Y10.000000 E164.021423
G0 X105.500000 E164.101423 ;end of channel value 0
G0 X103.750000 E164.181423
G1 Y58.333333 E166.424269
G0 X103.250000
G1 Y10.000000 E168.667115
G0 X102.750000
G1 Y58.333333 E170.909961
G0 X102.250000
G1 Y10.000000 E173.152807
G0 X100.500000 E173.232807 ;end of channel value 0
G0 X98.750000 E173.312807
G1 Y58.333333 E175.555654
G0 X98.250000
G1 Y10.000000 E177.798500
G0 X97.750000
G1 Y58.333333 E180.041346
G0 X97.250000
G1 Y10.000000 E182.284192
G0 X95.500000 E182.364192 ;end of channel value 0
G0 X93.750000 E182.444192
G1 Y58.333333 E184.687038
G0 X93.250000
G1 Y10.000000 E186.929884
G0 X92.750000
G1 Y58.333333 E189.172730
G0 X92.250000
G1 Y10.000000 E191.415576
G0 X90.500000 E191.495576 ;end of channel value 0
G0 X88.750000 E191.575576
G1 Y58.333333 E193.818422
G0 X88.250000
G1 Y10.000000 E196.061268
G0 X87.750000
G1 Y58.333333 E198.304114
G0 X87.250000
G1 Y10.000000 E200.546961
G0 X85.500000 E200.626961 ;end of channel value 0
G0 X83.750000 E200.706961
G1 Y58.333333 E202.949807
G0 X83.250000
G1 Y10.000000 E205.192653
G0 X82.750000
G1 Y58.333333 E207.435499
G0 X82.250000
G1 Y10.000000 E209.678345
G0 X80.500000 E209.758345 ;end of channel value 0
G0 X78.750000 E209.838345
G1 Y58.333333 E212.081191
G0 X78.250000
G1 Y10.000000 E214.324037
G0 X77.750000
G1 Y58.333333 E216.566883
G0 X77.250000
G1 Y10.000000 E218.809729
G0 X75.500000 E218.889729 ;end of channel value 0
G0 X73.750000 E218.969729
G1 Y58.333333 E221.212575
G0 X73.250000
G1 Y10.000000 E223.455422
G0 X72.750000
G1 Y58.333333 E225.698268
G0 X72.250000
G1 Y10.000000 E227.941114
G0 X70.500000 E228.021114 ;end of channel value 0
G0 X68.750000 E228.101114
G1 Y58.333333 E230.343960
G0 X68.250000
G1 Y10.000000 E232.586806
G0 X67.750000
G1 Y58.333333 E234.829652
G0 X67.250000
G1 Y10.000000 E237.072498
G0 X65.500000 E237.152498 ;end of channel value 0
G0 X63.750000 E237.232498
G1 Y58.333333 E239.475344
G0 X63.250000
G1 Y10.000000 E241.718190
G0 X62.750000
G1 Y58.333333 E243.961036
G0 X62.250000
G1 Y10.000000 E246.203882
G0 X60.500000 E246.283882 ;end of channel value 0
G0 X58.750000 E246.363882
G1 Y58.333333 E248.606729
G0 X58.250000
G1 Y10.000000 E250.849575
G0 X57.750000
G1 Y58.333333 E253.092421
G0 X57.250000
G1 Y10.000000 E255.335267
G0 X55.500000 E255.415267 ;end of channel value 0
G0 X53.750000 E255.495267
G1 Y58.333333 E257.738113
G0 X53.250000
G1 Y10.000000 E259.980959
G0 X52.750000
G1 Y58.333333 E262.223805
G0 X52.250000
G1 Y10.000000 E264.466651
G0 X50.500000 E264.546651 ;end of channel value 0
G0 X48.750000 E264.626651
G1 Y58.333333 E266.869497
G0 X48.250000
G1 Y10.000000 E269.112343
G0 X47.750000
G1 Y58.333333 E271.355189
G0 X47.250000
G1 Y10.000000 E273.598036
G0 X45.500000 E273.678036 ;end of channel value 0
G0 X43.750000 E273.758036
G1 Y58.333333 E276.000882
G0 X43.250000
G1 Y10.000000 E278.243728
G0 X42.750000
G1 Y58.333333 E280.486574
G0 X42.250000
G1 Y10.000000 E282.729420
G0 X40.500000 E282.809420 ;end of channel value 0
G0 X40.200000 ;end of channel value 0
G1 Y58.333333 E285.052266
G0 X35.800000 E285.262266
G1 Y10.000000 E287.505112
G0 X35.500000 ;end of channel value 0
G0 X35.200000 ;end of channel value 0
G1 Y58.333333 E289.747958
G0 X30.800000 E289.957958
G1 Y10.000000 E292.200804
G0 X30.500000 ;end of channel value 0
G0 X30.200000 ;end of channel value 0
G1 Y58.333333 E294.443650
G0 X25.800000 E294.653650
G1 Y10.000000 E296.896497
G0 X25.500000 ;end of channel value 0
G0 X23.750000 E296.976497
G1 Y58.333333 E299.219343
G0 X23.250000
G1 Y10.000000 E301.462189
G0 X22.750000
G1 Y58.333333 E303.705035
G0 X22.250000
G1 Y10.000000 E305.947881
G0 X20.500000 E306.027881 ;end of channel value 0
G0 X18.750000 E306.107881
G1 Y58.333333 E308.350727
G0 X18.250000
G1 Y10.000000 E310.593573
G0 X17.750000
G1 Y58.333333 E312.836419
G0 X17.250000
G1 Y10.000000 E315.079265
G0 X15.500000 E315.159265 ;end of channel value 0
G0 X13.750000 E315.239265
G1 Y58.333333 E317.482111
G0 X13.250000
G1 Y10.000000 E319.724957
G0 X12.750000
G1 Y58.333333 E321.967804
G0 X12.250000
G1 Y10.000000 E324.210650
G0 X10.500000 E324.290650 ;end of channel value 0
G0 Y58.333333 X10.000000 ;end of row
G1 X195.5 E332.898538
G0 X193.750000 E332.978538
G1 Y68.333333 E333.442575
G0 X193.250000
G1 Y58.333333 E333.906613
G0 X192.750000
G1 Y68.333333 E334.370650
G0 X192.250000
G1 Y58.333333 E334.834687
G0 X190.500000 E334.914687 ;end of channel value 0
G0 X188.750000 E334.994687
G1 Y68.333333 E335.458724
G0 X188.250000
G1 Y58.333333 E335.922761
G0 X187.750000
G1 Y68.333333 E336.386798
G0 X187.250000
G1 Y58.333333 E336.850835
G0 X185.500000 E336.930835 ;end of channel value 0
G0 X183.750000 E337.010835
G1 Y68.333333 E337.474872
G0 X183.250000
G1 Y58.333333 E337.938910
G0 X182.750000
G1 Y68.333333 E338.402947
G0 X182.250000
G1 Y58.333333 E338.866984
G0 X180.500000 E338.946984 ;end of channel value 0
G0 X178.750000 E339.026984
G1 Y68.333333 E339.491021
G0 X178.250000
G1 Y58.333333 E339.955058
G0 X177.750000
G1 Y68.333333 E340.419095
G0 X177.250000
G1 Y58.333333 E340.883132
G0 X175.500000 E340.963132 ;end of channel value 0
G0 X173.750000 E341.043132
G1 Y68.333333 E341.507169
G0 X173.250000
G1 Y58.333333 E341.971206
G0 X172.750000
G1 Y68.333333 E342.435244
G0 X172.250000
G1 Y58.333333 E342.899281
G0 X170.500000 E342.979281 ;end of channel value 0
G0 X170.200000 ;end of channel value 0
G1 Y68.333333 E343.443318
G0 X165.800000 E343.653318
G1 Y58.333333 E344.117355
G0 X165.500000 ;end of channel value 0
G0 X165.200000 ;end of channel value 0
G1 Y68.333333 E344.581392
G0 X160.800000 E344.791392
G1 Y58.333333 E345.255429
G0 X160.500000 ;end of channel value 0
G0 X158.750000 E345.335429
G1 Y68.333333 E345.799466
G0 X158.250000
G1 Y58.333333 E346.263503
G0 X157.750000
G1 Y68.333333 E346.727541
G0 X157.250000
G1 Y58.333333 E347.191578
G0 X155.500000 E347.271578 ;end of channel value 0
G0 X153.750000 E347.351578
G1 Y68.333333 E347.815615
G0 X153.250000
G1 Y58.333333 E348.279652
G0 X152.750000
G1 Y68.333333 E348.743689
G0 X152.250000
G1 Y58.333333 E349.207726
G0 X150.500000 E349.287726 ;end of channel value 0
G0 X148.750000 E349.367726
G1 Y68.333333 E349.831763
G0 X148.250000
G1 Y58.333333 E350.295800
G0 X147.750000
G1 Y68.333333 E350.759838
G0 X147.250000
G1 Y58.333333 E351.223875
G0 X145.500000 E351.303875 ;end of channel value 0
G0 X143.750000 E351.383875
G1 Y68.333333 E351.847912
G0 X143.250000
G1 Y58.333333 E352.311949
G0 X142.750000
G1 Y68.333333 E352.775986
G0 X142.250000
G1 Y58.333333 E353.240023
G0 X140.500000 E353.320023 ;end of channel value 0
G0 X138.750000 E353.400023
G1 Y68.333333 E353.864060
G0 X138.250000
G1 Y58.333333 E354.328097
G0 X137.750000
G1 Y68.333333 E354.792135
G0 X137.250000
G1 Y58.333333 E355.256172
G0 X135.500000 E355.336172 ;end of channel value 0
G0 X133.750000 E355.416172
G1 Y68.333333 E355.880209
G0 X133.250000
G1 Y58.333333 E356.344246
G0 X132.750000
G1 Y68.333333 E356.808283
G0 X132.250000
G1 Y58.333333 E357.272320
G0 X130.500000 E357.352320 ;end of channel value 0
G0 X128.750000 E357.432320
G1 Y68.333333 E357.896357
G0 X128.250000
G1 Y58.333333 E358.360394
G0 X127.750000
G1 Y68.333333 E358.824432
G0 X127.250000
G1 Y58.333333 E359.288469
G0 X125.500000 E359.368469 ;end of channel value 0
G0 X123.750000 E359.448469
G1 Y68.333333 E359.912506
G0 X123.250000
G1 Y58.333333 E360.376543
G0 X122.750000
G1 Y68.333333 E360.840580
G0 X122.250000
G1 Y58.333333 E361.304617
G0 X120.500000 E361.384617 ;end of channel value 0
G0 X118.750000 E361.464617
G1 Y68.333333 E361.928654
G0 X118.250000
G1 Y58.333333 E362.392691
G0 X117.750000
G1 Y68.333333 E362.856729
G0 X117.250000
G1 Y58.333333 E363.320766
G0 X115.500000 E363.400766 ;end of channel value 0
G0 X113.750000 E363.480766
G1 Y68.333333 E363.944803
G0 X113.250000
G1 Y58.333333 E364.408840
G0 X112.750000
G1 Y68.333333 E364.872877
G0 X112.250000
G1 Y58.333333 E365.336914
G0 X110.500000 E365.416914 ;end of channel value 0
G0 X108.750000 E365.496914
G1 Y68.333333 E365.960951
G0 X108.250000
G1 Y58.333333 E366.424988
G0 X107.750000
G1 Y68.333333 E366.889026
G0 X107.250000
G1 Y58.333333 E367.353063
G0 X105.500000 E367.433063 ;end of channel value 0
G0 X103.750000 E367.513063
G1 Y68.333333 E367.977100
G0 X103.250000
G1 Y58.333333 E368.441137
G0 X102.750000
G1 Y68.333333 E368.905174
G0 X102.250000
G1 Y58.333333 E369.369211
G0 X100.500000 E369.449211 ;end of channel value 0
G0 X98.750000 E369.529211
G1 Y68.333333 E369.993248
G0 X98.250000
G1 Y58.333333 E370.457285
G0 X97.750000
G1 Y68.333333 E370.921323
G0 X97.250000
G1 Y58.333333 E371.385360
G0 X95.500000 E371.465360 ;end of channel value 0
G0 X93.750000 E371.545360
G1 Y68.333333 E372.009397
G0 X93.250000
G1 Y58.333333 E372.473434
G0 X92.750000
G1 Y68.333333 E372.937471
G0 X92.250000
G1 Y58.333333 E373.401508
G0 X90.500000 E373.481508 ;end of channel value 0
G0 X88.750000 E373.561508
G1 Y68.333333 E374.025545
G0 X88.250000
G1 Y58.333333 E374.489582
G0 X87.750000
G1 Y68.333333 E374.953619
G0 X87.250000
G1 Y58.333333 E375.417657
G0 X85.500000 E375.497657 ;end of channel value 0
G0 X83.750000 E375.577657
G1 Y68.333333 E376.041694
G0 X83.250000
G1 Y58.333333 E376.505731
G0 X82.750000
G1 Y68.333333 E376.969768
G0 X82.250000
G1 Y58.333333 E377.433805
G0 X80.500000 E377.513805 ;end of channel value 0
G0 X78.750000 E377.593805
G1 Y68.333333 E378.057842
G0 X78.250000
G1 Y58.333333 E378.521879
G0 X77.750000
G1 Y68.333333 E378.985916
G0 X77.250000
G1 Y58.333333 E379.449954
G0 X75.500000 E379.529954 ;end of channel value 0
G0 X75.200000 ;end of channel value 0
G1 Y68.333333 E379.993991
G0 X70.800000 E380.203991
G1 Y58.333333 E380.668028
G0 X70.500000 ;end of channel value 0
G0 X70.200000 ;end of channel value 0
G1 Y68.333333 E381.132065
G0 X65.800000 E381.342065
G1 Y58.333333 E381.806102
G0 X65.500000 ;end of channel value 0
G0 X65.200000 ;end of channel value 0
G1 Y68.333333 E382.270139
G0 X60.800000 E382.480139
G1 Y58.333333 E382.944176
G0 X60.500000 ;end of channel value 0
G0 X58.750000 E383.024176
G1 Y68.333333 E383.488213
G0 X58.250000
G1 Y58.333333 E383.952251
G0 X57.750000
G1 Y68.333333 E384.416288
G0 X57.250000
G1 Y58.333333 E384.880325
G0 X55.500000 E384.960325 ;end of channel value 0
G0 X53.750000 E385.040325
G1 Y68.333333 E385.504362
G0 X53.250000
G1 Y58.333333 E385.968399
G0 X52.750000
G1 Y68.333333 E386.432436
G0 X52.250000
G1 Y58.333333 E386.896473
G0 X50.500000 E386.976473 ;end of channel value 0
G0 X48.750000 E387.056473
G1 Y68.333333 E387.520510
G0 X48.250000
G1 Y58.333333 E387.984548
G0 X47.750000
G1 Y68.333333 E388.448585
G0 X47.250000
G1 Y58.333333 E388.912622
G0 X45.500000 E388.992622 ;end of channel value 0
G0 X43.750000 E389.072622
G1 Y68.333333 E389.536659
G0 X43.250000
G1 Y58.333333 E390.000696
G0 X42.750000
G1 Y68.333333 E390.464733
G0 X42.250000
G1 Y58.333333 E390.928770
G0 X40.500000 E391.008770 ;end of channel value 0
G0 X38.750000 E391.088770
G1 Y68.333333 E391.552807
G0 X38.250000
G1 Y58.333333 E392.016845
G0 X37.750000
G1 Y68.333333 E392.480882
G0 X37.250000
G1 Y58.333333 E392.944919
G0 X35.500000 E393.024919 ;end of channel value 0
G0 X33.750000 E393.104919
G1 Y68.333333 E393.568956
G0 X33.250000
G1 Y58.333333 E394.032993
G0 X32.750000
G1 Y68.333333 E394.497030
G0 X32.250000
G1 Y58.333333 E394.961067
G0 X30.500000 E395.041067 ;end of channel value 0
G0 X28.750000 E395.121067
G1 Y68.333333 E395.585104
G0 X28.250000
G1 Y58.333333 E396.049142
G0 X27.750000
G1 Y68.333333 E396.513179
G0 X27.250000
G1 Y58.333333 E396.977216
G0 X25.500000 E397.057216 ;end of channel value 0
G0 X23.750000 E397.137216
G1 Y68.333333 E397.601253
G0 X23.250000
G1 Y58.333333 E398.065290
G0 X22.750000
G1 Y68.333333 E398.529327
G0 X22.250000
G1 Y58.333333 E398.993364
G0 X20.500000 E399.073364 ;end of channel value 0
G0 X18.750000 E399.153364
G1 Y68.333333 E399.617401
G0 X18.250000
G1 Y58.333333 E400.081439
G0 X17.750000
G1 Y68.333333 E400.545476
G0 X17.250000
G1 Y58.333333 E401.009513
G0 X15.500000 E401.089513 ;end of channel value 0
G0 X13.750000 E401.169513
G1 Y68.333333 E401.633550
G0 X13.250000
G1 Y58.333333 E402.097587
G0 X12.750000
G1 Y68.333333 E402.561624
G0 X12.250000
G1 Y58.333333 E403.025661
G0 X10.500000 E403.105661 ;end of channel value 0
G0 Y68.333333 X10.000000 ;end of row
G1 X195.5 E411.713550
G0 X195.200000 ;end of channel value 0
G1 Y79.535185 E412.233357
G0 X190.800000 E412.443357
G1 Y68.333333 E412.963165
G0 X190.500000 ;end of channel value 0
G0 X188.750000 E413.043165
G1 Y79.535185 E413.562972
G0 X188.250000
G1 Y68.333333 E414.082780
G0 X187.750000
G1 Y79.535185 E414.602587
G0 X187.250000
G1 Y68.333333 E415.122395
G0 X185.500000 E415.202395 ;end of channel value 0
G0 X183.750000 E415.282395
G1 Y79.535185 E415.802202
G0 X183.250000
G1 Y68.333333 E416.322010
G0 X182.750000
G1 Y79.535185 E416.841817
G0 X182.250000
G1 Y68.333333 E417.361625
G0 X180.500000 E417.441625 ;end of channel value 0
G0 X180.200000 ;end of channel value 0
G1 Y79.535185 E417.961432
G0 X175.800000 E418.171432
G1 Y68.333333 E418.691240
G0 X175.500000 ;end of channel value 0
G0 X175.200000 ;end of channel value 0
G1 Y79.535185 E419.211047
G0 X170.800000 E419.421047
G1 Y68.333333 E419.940855
G0 X170.500000 ;end of channel value 0
G0 X168.750000 E420.020855
G1 Y79.535185 E420.540662
G0 X168.250000
G1 Y68.333333 E421.060470
G0 X167.750000
G1 Y79.535185 E421.580277
G0 X167.250000
G1 Y68.333333 E422.100085
G0 X165.500000 E422.180085 ;end of channel value 0
G0 X163.750000 E422.260085
G1 Y79.535185 E422.779892
G0 X163.250000
G1 Y68.333333 E423.299700
G0 X162.750000
G1 Y79.535185 E423.819508
G0 X162.250000
G1 Y68.333333 E424.339315
G0 X160.500000 E424.419315 ;end of channel value 0
G0 X160.200000 ;end of channel value 0
G1 Y79.535185 E424.939123
G0 X155.800000 E425.149123
G1 Y68.333333 E425.668930
G0 X155.500000 ;end of channel value 0
G0 X153.750000 E425.748930
G1 Y79.535185 E426.268738
G0 X153.250000
G1 Y68.333333 E426.788545
G0 X152.750000
G1 Y79.535185 E427.308353
G0 X152.250000
G1 Y68.333333 E427.828160
G0 X150.500000 E427.908160 ;end of channel value 0
G0 X148.750000 E427.988160
G1 Y79.535185 E428.507968
G0 X148.250000
G1 Y68.333333 E429.027775
G0 X147.750000
G1 Y79.535185 E429.547583
G0 X147.250000
G1 Y68.333333 E430.067390
G0 X145.500000 E430.147390 ;end of channel value 0
G0 X143.750000 E430.227390
G1 Y79.535185 E430.747198
G0 X143.250000
G1 Y68.333333 E431.267005
G0 X142.750000
G1 Y79.535185 E431.786813
G0 X142.250000
G1 Y68.333333 E432.306620
G0 X140.500000 E432.386620 ;end of channel value 0
G0 X138.750000 E432.466620
G1 Y79.535185 E432.986428
G0 X138.250000
G1 Y68.333333 E433.506235
G0 X137.750000
G1 Y79.535185 E434.026043
G0 X137.250000
G1 Y68.333333 E434.545850
G0 X135.500000 E434.625850 ;end of channel value 0
G0 X133.750000 E434.705850
G1 Y79.535185 E435.225658
G0 X133.250000
G1 Y68.333333 E435.745465
G0 X132.750000
G1 Y79.535185 E436.265273
G0 X132.250000
G1 Y68.333333 E436.785080
G0 X130.500000 E436.865080 ;end of channel value 0
G0 X128.750000 E436.945080
G1 Y79.535185 E437.464888
G0 X128.250000
G1 Y68.333333 E437.984695
G0 X127.750000
G1 Y79.535185 E438.504503
G0 X127.250000
G1 Y68.333333 E439.024310
G0 X125.500000 E439.104310 ;end of channel value 0
G0 X123.750000 E439.184310
G1 Y79.535185 E439.704118
G0 X123.250000
G1 Y68.333333 E440.223925
G0 X122.750000
G1 Y79.535185 E440.743733
G0 X122.250000
G1 Y68.333333 E441.263540
G0 X120.500000 E441.343540 ;end of channel value 0
G0 X118.750000 E441.423540
G1 Y79.535185 E441.943348
G0 X118.250000
G1 Y68.333333 E442.463155
G0 X117.750000
G1 Y79.535185 E442.982963
G0 X117.250000
G1 Y68.333333 E443.502770
G0 X115.500000 E443.582770 ;end of channel value 0
G0 X113.750000 E443.662770
G1 Y79.535185 E444.182578
G0 X113.250000
G1 Y68.333333 E444.702385
G0 X112.750000
G1 Y79.535185 E445.222193
G0 X112.250000
G1 Y68.333333 E445.742000
G0 X110.500000 E445.822000 ;end of channel value 0
G0 X108.750000 E445.902000
G1 Y79.535185 E446.421808
G0 X108.250000
G1 Y68.333333 E446.941615
G0 X107.750000
G1 Y79.535185 E447.461423
G0 X107.250000
G1 Y68.333333 E447.981230
G0 X105.500000 E448.061230 ;end of channel value 0
G0 X103.750000 E448.141230
G1 Y79.535185 E448.661038
G0 X103.250000
G1 Y68.333333 E449.180845
G0 X102.750000
G1 Y79.535185 E449.700653
G0 X102.250000
G1 Y68.333333 E450.220460
G0 X100.500000 E450.300460 ;end of channel value 0
G0 X98.750000 E450.380460
G1 Y79.535185 E450.900268
G0 X98.250000
G1 Y68.333333 E451.420075
G0 X97.750000
G1 Y79.535185 E451.939883
G0 X97.250000
G1 Y68.333333 E452.459690
G0 X95.500000 E452.539690 ;end of channel value 0
G0 X93.750000 E452.619690
G1 Y79.535185 E453.139498
G0 X93.250000
G1 Y68.333333 E453.659305
G0 X92.750000
G1 Y79.535185 E454.179113
G0 X92.250000
G1 Y68.333333 E454.698920
G0 X90.500000 E454.778920 ;end of channel value 0
G0 X88.750000 E454.858920
G1 Y79.535185 E455.378728
G0 X88.250000
G1 Y68.333333 E455.898535
G0 X87.750000
G1 Y79.535185 E456.418343
G0 X87.250000
G1 Y68.333333 E456.938150
G0 X85.500000 E457.018150 ;end of channel value 0
G0 X83.750000 E457.098150
G1 Y79.535185 E457.617958
G0 X83.250000
G1 Y68.333333 E458.137765
G0 X82.750000
G1 Y79.535185 E458.657573
G0 X82.250000
G1 Y68.333333 E459.177380
G0 X80.500000 E459.257380 ;end of channel value 0
G0 X80.200000 ;end of channel value 0
G1 Y79.535185 E459.777188
G0 X75.800000 E459.987188
G1 Y68.333333 E460.506995
G0 X75.500000 ;end of channel value 0
G0 X75.200000 ;end of channel value 0
G1 Y79.535185 E461.026803
G0 X70.800000 E461.236803
G1 Y68.333333 E461.756610
G0 X70.500000 ;end of channel value 0
G0 X68.750000 E461.836610
G1 Y79.535185 E462.356418
G0 X68.250000
G1 Y68.333333 E462.876225
G0 X67.750000
G1 Y79.535185 E463.396033
G0 X67.250000
G1 Y68.333333 E463.915840
G0 X65.500000 E463.995840 ;end of channel value 0
G0 X63.750000 E464.075840
G1 Y79.535185 E464.595648
G0 X63.250000
G1 Y68.333333 E465.115455
G0 X62.750000
G1 Y79.535185 E465.635263
G0 X62.250000
G1 Y68.333333 E466.155070
G0 X60.500000 E466.235070 ;end of channel value 0
G0 X60.200000 ;end of channel value 0
G1 Y79.535185 E466.754878
G0 X55.800000 E466.964878
G1 Y68.333333 E467.484685
G0 X55.500000 ;end of channel value 0
G0 X53.750000 E467.564685
G1 Y79.535185 E468.084493
G0 X53.250000
G1 Y68.333333 E468.604300
G0 X52.750000
G1 Y79.535185 E469.124108
G0 X52.250000
G1 Y68.333333 E469.643915
G0 X50.500000 E469.723915 ;end of channel value 0
G0 X50.200000 ;end of channel value 0
G1 Y79.535185 E470.243723
G0 X45.800000 E470.453723
G1 Y68.333333 E470.973530
G0 X45.500000 ;end of channel value 0
G0 X43.750000 E471.053530
G1 Y79.535185 E471.573338
G0 X43.250000
G1 Y68.333333 E472.093145
G0 X42.750000
G1 Y79.535185 E472.612953
G0 X42.250000
G1 Y68.333333 E473.132761
G0 X40.500000 E473.212761 ;end of channel value 0
G0 X38.750000 E473.292761
G1 Y79.535185 E473.812568
G0 X38.250000
G1 Y68.333333 E474.332376
G0 X37.750000
G1 Y79.535185 E474.852183
G0 X37.250000
G1 Y68.333333 E475.371991
G0 X35.500000 E475.451991 ;end of channel value 0
G0 X35.200000 ;end of channel value 0
G1 Y79.535185 E475.971798
G0 X30.800000 E476.181798
G1 Y68.333333 E476.701606
G0 X30.500000 ;end of channel value 0
G0 X28.750000 E476.781606
G1 Y79.535185 E477.301413
G0 X28.250000
G1 Y68.333333 E477.821221
G0 X27.750000
G1 Y79.535185 E478.341028
G0 X27.250000
G1 Y68.333333 E478.860836
G0 X25.500000 E478.940836 ;end of channel value 0
G0 X23.750000 E479.020836
G1 Y79.535185 E479.540643
G0 X23.250000
G1 Y68.333333 E480.060451
G0 X22.750000
G1 Y79.535185 E480.580258
G0 X22.250000
G1 Y68.333333 E481.100066
G0 X20.500000 E481.180066 ;end of channel value 0
G0 X18.750000 E481.260066
G1 Y79.535185 E481.779873
G0 X18.250000
G1 Y68.333333 E482.299681
G0 X17.750000
G1 Y79.535185 E482.819488
G0 X17.250000
G1 Y68.333333 E483.339296
G0 X15.500000 E483.419296 ;end of channel value 0
G0 X13.750000 E483.499296
G1 Y79.535185 E484.019103
G0 X13.250000
G1 Y68.333333 E484.538911
G0 X12.750000
G1 Y79.535185 E485.058718
G0 X12.250000
G1 Y68.333333 E485.578526
G0 X10.500000 E485.658526 ;end of channel value 0
G0 Y79.535185 X10.000000 ;end of row
G1 X195.5 E494.266414
G0 X193.750000 E494.346414
G1 Y86.029418 E494.647771
G0 X193.250000
G1 Y79.535185 E494.949127
G0 X192.750000
G1 Y86.029418 E495.250484
G0 X192.250000
G1 Y79.535185 E495.551840
G0 X190.500000 E495.631840 ;end of channel value 0
G0 X190.200000 ;end of channel value 0
G1 Y86.029418 E495.933197
G0 X185.800000 E496.143197
G1 Y79.535185 E496.444553
G0 X185.500000 ;end of channel value 0
G0 X185.200000 ;end of channel value 0
G1 Y86.029418 E496.745910
G0 X180.800000 E496.955910
G1 Y79.535185 E497.257267
G0 X180.500000 ;end of channel value 0
G0 X178.750000 E497.337267
G1 Y86.029418 E497.638623
G0 X178.250000
G1 Y79.535185 E497.939980
G0 X177.750000
G1 Y86.029418 E498.241336
G0 X177.250000
G1 Y79.535185 E498.542693
G0 X175.500000 E498.622693 ;end of channel value 0
G0 X173.750000 E498.702693
G1 Y86.029418 E499.004049
G0 X173.250000
G1 Y79.535185 E499.305406
G0 X172.750000
G1 Y86.029418 E499.606762
G0 X172.250000
G1 Y79.535185 E499.908119
G0 X170.500000 E499.988119 ;end of channel value 0
G0 X168.750000 E500.068119
G1 Y86.029418 E500.369475
G0 X168.250000
G1 Y79.535185 E500.670832
G0 X167.750000
G1 Y86.029418 E500.972188
G0 X167.250000
G1 Y79.535185 E501.273545
G0 X165.500000 E501.353545 ;end of channel value 0
G0 X163.750000 E501.433545
G1 Y86.029418 E501.734902
G0 X163.250000
G1 Y79.535185 E502.036258
G0 X162.750000
G1 Y86.029418 E502.337615
G0 X162.250000
G1 Y79.535185 E502.638971
G0 X160.500000 E502.718971 ;end of channel value 0
G0 X158.750000 E502.798971
G1 Y86.029418 E503.100328
G0 X158.250000
G1 Y79.535185 E503.401684
G0 X157.750000
G1 Y86.029418 E503.703041
G0 X157.250000
G1 Y79.535185 E504.004397
G0 X155.500000 E504.084397 ;end of channel value 0
G0 X153.750000 E504.164397
G1 Y86.029418 E504.465754
G0 X153.250000
G1 Y79.535185 E504.767110
G0 X152.750000
G1 Y86.029418 E505.068467
G0 X152.250000
G1 Y79.535185 E505.369823
G0 X150.500000 E505.449823 ;end of channel value 0
G0 X148.750000 E505.529823
G1 Y86.029418 E505.831180
G0 X148.250000
G1 Y79.535185 E506.132536
G0 X147.750000
G1 Y86.029418 E506.433893
G0 X147.250000
G1 Y79.535185 E506.735250
G0 X145.500000 E506.815250 ;end of channel value 0
G0 X143.750000 E506.895250
G1 Y86.029418 E507.196606
G0 X143.250000
G1 Y79.535185 E507.497963
G0 X142.750000
G1 Y86.029418 E507.799319
G0 X142.250000
G1 Y79.535185 E508.100676
G0 X140.500000 E508.180676 ;end of channel value 0
G0 X138.750000 E508.260676
G1 Y86.029418 E508.562032
G0 X138.250000
G1 Y79.535185 E508.863389
G0 X137.750000
G1 Y86.029418 E509.164745
G0 X137.250000
G1 Y79.535185 E509.466102
G0 X135.500000 E509.546102 ;end of channel value 0
G0 X133.750000 E509.626102
G1 Y86.029418 E509.927458
G0 X133.250000
G1 Y79.535185 E510.228815
G0 X132.750000
G1 Y86.029418 E510.530171
G0 X132.250000
G1 Y79.535185 E510.831528
G0 X130.500000 E510.911528 ;end of channel value 0
G0 X128.750000 E510.991528
G1 Y86.029418 E511.292884
G0 X128.250000
G1 Y79.535185 E511.594241
G0 X127.750000
G1 Y86.029418 E511.895598
G0 X127.250000
G1 Y79.535185 E512.196954
G0 X125.500000 E512.276954 ;end of channel value 0
G0 X123.750000 E512.356954
G1 Y86.029418 E512.658311
G0 X123.250000
G1 Y79.535185 E512.959667
G0 X122.750000
G1 Y86.029418 E513.261024
G0 X122.250000
G1 Y79.535185 E513.562380
G0 X120.500000 E513.642380 ;end of channel value 0
G0 X118.750000 E513.722380
G1 Y86.029418 E514.023737
G0 X118.250000
G1 Y79.535185 E514.325093
G0 X117.750000
G1 Y86.029418 E514.626450
G0 X117.250000
G1 Y79.535185 E514.927806
G0 X115.500000 E515.007806 ;end of channel value 0
G0 X113.750000 E515.087806
G1 Y86.029418 E515.389163
G0 X113.250000
G1 Y79.535185 E515.690519
G0 X112.750000
G1 Y86.029418 E515.991876
G0 X112.250000
G1 Y79.535185 E516.293233
G0 X110.500000 E516.373233 ;end of channel value 0
G0 X108.750000 E516.453233
G1 Y86.029418 E516.754589
G0 X108.250000
G1 Y79.535185 E517.055946
G0 X107.750000
G1 Y86.029418 E517.357302
G0 X107.250000
G1 Y79.535185 E517.658659
G0 X105.500000 E517.738659 ;end of channel value 0
G0 X103.750000 E517.818659
G1 Y86.029418 E518.120015
G0 X103.250000
G1 Y79.535185 E518.421372
G0 X102.750000
G1 Y86.029418 E518.722728
G0 X102.250000
G1 Y79.535185 E519.024085
G0 X100.500000 E519.104085 ;end of channel value 0
G0 X98.750000 E519.184085
G1 Y86.029418 E519.485441
G0 X98.250000
G1 Y79.535185 E519.786798
G0 X97.750000
G1 Y86.029418 E520.088154
G0 X97.250000
G1 Y79.535185 E520.389511
G0 X95.500000 E520.469511 ;end of channel value 0
G0 X93.750000 E520.549511
G1 Y86.029418 E520.850867
G0 X93.250000
G1 Y79.535185 E521.152224
G0 X92.750000
G1 Y86.029418 E521.453581
G0 X92.250000
G1 Y79.535185 E521.754937
G0 X90.500000 E521.834937 ;end of channel value 0
G0 X88.750000 E521.914937
G1 Y86.029418 E522.216294
G0 X88.250000
G1 Y79.535185 E522.517650
G0 X87.750000
G1 Y86.029418 E522.819007
G0 X87.250000
G1 Y79.535185 E523.120363
G0 X85.500000 E523.200363 ;end of channel value 0
G0 X83.750000 E523.280363
G1 Y86.029418 E523.581720
G0 X83.250000
G1 Y79.535185 E523.883076
G0 X82.750000
G1 Y86.029418 E524.184433
G0 X82.250000
G1 Y79.535185 E524.485789
G0 X80.500000 E524.565789 ;end of channel value 0
G0 X78.750000 E524.645789
G1 Y86.029418 E524.947146
G0 X78.250000
G1 Y79.535185 E525.248502
G0 X77.750000
G1 Y86.029418 E525.549859
G0 X77.250000
G1 Y79.535185 E525.851216
G0 X75.500000 E525.931216 ;end of channel value 0
G0 X73.750000 E526.011216
G1 Y86.029418 E526.312572
G0 X73.250000
G1 Y79.535185 E526.613929
G0 X72.750000
G1 Y86.029418 E526.915285
G0 X72.250000
G1 Y79.535185 E527.216642
G0 X70.500000 E527.296642 ;end of channel value 0
G0 X68.750000 E527.376642
G1 Y86.029418 E527.677998
G0 X68.250000
G1 Y79.535185 E527.979355
G0 X67.750000
G1 Y86.029418 E528.280711
G0 X67.250000
G1 Y79.535185 E528.582068
G0 X65.500000 E528.662068 ;end of channel value 0
G0 X63.750000 E528.742068
G1 Y86.029418 E529.043424
G0 X63.250000
G1 Y79.535185 E529.344781
G0 X62.750000
G1 Y86.029418 E529.646137
G0 X62.250000
G1 Y79.535185 E529.947494
G0 X60.500000 E530.027494 ;end of channel value 0
G0 X58.750000 E530.107494
G1 Y86.029418 E530.408850
G0 X58.250000
G1 Y79.535185 E530.710207
G0 X57.750000
G1 Y86.029418 E531.011564
G0 X57.250000
G1 Y79.535185 E531.312920
G0 X55.500000 E531.392920 ;end of channel value 0
G0 X53.750000 E531.472920
G1 Y86.029418 E531.774277
G0 X53.250000
G1 Y79.535185 E532.075633
G0 X52.750000
G1 Y86.029418 E532.376990
G0 X52.250000
G1 Y79.535185 E532.678346
G0 X50.500000 E532.758346 ;end of channel value 0
G0 X48.750000 E532.838346
G1 Y86.029418 E533.139703
G0 X48.250000
G1 Y79.535185 E533.441059
G0 X47.750000
G1 Y86.029418 E533.742416
G0 X47.250000
G1 Y79.535185 E534.043772
G0 X45.500000 E534.123772 ;end of channel value 0
G0 X43.750000 E534.203772
G1 Y86.029418 E534.505129
G0 X43.250000
G1 Y79.535185 E534.806485
G0 X42.750000
G1 Y86.029418 E535.107842
G0 X42.250000
G1 Y79.535185 E535.409198
G0 X40.500000 E535.489198 ;end of channel value 0
G0 X40.200000 ;end of channel value 0
G1 Y86.029418 E535.790555
G0 X35.800000 E536.000555
G1 Y79.535185 E536.301912
G0 X35.500000 ;end of channel value 0
G0 X35.200000 ;end of channel value 0
G1 Y86.029418 E536.603268
G0 X30.800000 E536.813268
G1 Y79.535185 E537.114625
G0 X30.500000 ;end of channel value 0
G0 X30.200000 ;end of channel value 0
G1 Y86.029418 E537.415981
G0 X25.800000 E537.625981
G1 Y79.535185 E537.927338
G0 X25.500000 ;end of channel value 0
G0 X23.750000 E538.007338
G1 Y86.029418 E538.308694
G0 X23.250000
G1 Y79.535185 E538.610051
G0 X22.750000
G1 Y86.029418 E538.911407
G0 X22.250000
G1 Y79.535185 E539.212764
G0 X20.500000 E539.292764 ;end of channel value 0
G0 X18.750000 E539.372764
G1 Y86.029418 E539.674120
G0 X18.250000
G1 Y79.535185 E539.975477
G0 X17.750000
G1 Y86.029418 E540.276833
G0 X17.250000
G1 Y79.535185 E540.578190
G0 X15.500000 E540.658190 ;end of channel value 0
G0 X13.750000 E540.738190
G1 Y86.029418 E541.039547
G0 X13.250000
G1 Y79.535185 E541.340903
G0 X12.750000
G1 Y86.029418 E541.642260
G0 X12.250000
G1 Y79.535185 E541.943616
G0 X10.500000 E542.023616 ;end of channel value 0
G0 Y86.029418 X10.000000 ;end of row
G1 X195.5 E550.631505
G0 X193.750000 E550.711505
G1 Y91.862749 E550.982193
G0 X193.250000
G1 Y86.029418 E551.252881
G0 X192.750000
G1 Y91.862749 E551.523569
G0 X192.250000
G1 Y86.029418 E551.794258
G0 X190.500000 E551.874258 ;end of channel value 0
G0 X188.750000 E551.954258
G1 Y91.862749 E552.224946
G0 X188.250000
G1 Y86.029418 E552.495634
G0 X187.750000
G1 Y91.862749 E552.766322
G0 X187.250000
G1 Y86.029418 E553.037010
G0 X185.500000 E553.117010 ;end of channel value 0
G0 X183.750000 E553.197010
G1 Y91.862749 E553.467699
G0 X183.250000
G1 Y86.029418 E553.738387
G0 X182.750000
G1 Y91.862749 E554.009075
G0 X182.250000
G1 Y86.029418 E554.279763
G0 X180.500000 E554.359763 ;end of channel value 0
G0 X178.750000 E554.439763
G1 Y91.862749 E554.710452
G0 X178.250000
G1 Y86.029418 E554.981140
G0 X177.750000
G1 Y91.862749 E555.251828
G0 X177.250000
G1 Y86.029418 E555.522516
G0 X175.500000 E555.602516 ;end of channel value 0
G0 X173.750000 E555.682516
G1 Y91.862749 E555.953204
G0 X173.250000
G1 Y86.029418 E556.223893
G0 X172.750000
G1 Y91.862749 E556.494581
G0 X172.250000
G1 Y86.029418 E556.765269
G0 X170.500000 E556.845269 ;end of channel value 0
G0 X170.200000 ;end of channel value 0
G1 Y91.862749 E557.115957
G0 X165.800000 E557.325957
G1 Y86.029418 E557.596645
G0 X165.500000 ;end of channel value 0
G0 X165.200000 ;end of channel value 0
G1 Y91.862749 E557.867334
G0 X160.800000 E558.077334
G1 Y86.029418 E558.348022
G0 X160.500000 ;end of channel value 0
G0 X158.750000 E558.428022
G1 Y91.862749 E558.698710
G0 X158.250000
G1 Y86.029418 E558.969398
G0 X157.750000
G1 Y91.862749 E559.240087
G0 X157.250000
G1 Y86.029418 E559.510775
G0 X155.500000 E559.590775 ;end of channel value 0
G0 X153.750000 E559.670775
G1 Y91.862749 E559.941463
G0 X153.250000
G1 Y86.029418 E560.212151
G0 X152.750000
G1 Y91.862749 E560.482839
G0 X152.250000
G1 Y86.029418 E560.753528
G0 X150.500000 E560.833528 ;end of channel value 0
G0 X148.750000 E560.913528
G1 Y91.862749 E561.184216
G0 X148.250000
G1 Y86.029418 E561.454904
G0 X147.750000
G1 Y91.862749 E561.725592
G0 X147.250000
G1 Y86.029418 E561.996280
G0 X145.500000 E562.076280 ;end of channel value 0
G0 X143.750000 E562.156280
G1 Y91.862749 E562.426969
G0 X143.250000
G1 Y86.029418 E562.697657
G0 X142.750000
G1 Y91.862749 E562.968345
G0 X142.250000
G1 Y86.029418 E563.239033
G0 X140.500000 E563.319033 ;end of channel value 0
G0 X138.750000 E563.399033
G1 Y91.862749 E563.669722
G0 X138.250000
G1 Y86.029418 E563.940410
G0 X137.750000
G1 Y91.862749 E564.211098
G0 X137.250000
G1 Y86.029418 E564.481786
G0 X135.500000 E564.561786 ;end of channel value 0
G0 X133.750000 E564.641786
G1 Y91.862749 E564.912474
G0 X133.250000
G1 Y86.029418 E565.183163
G0 X132.750000
G1 Y91.862749 E565.453851
G0 X132.250000
G1 Y86.029418 E565.724539
G0 X130.500000 E565.804539 ;end of channel value 0
G0 X128.750000 E565.884539
G1 Y91.862749 E566.155227
G0 X128.250000
G1 Y86.029418 E566.425915
G0 X127.750000
G1 Y91.862749 E566.696604
G0 X127.250000
G1 Y86.029418 E566.967292
G0 X125.500000 E567.047292 ;end of channel value 0
G0 X123.750000 E567.127292
G1 Y91.862749 E567.397980
G0 X123.250000
G1 Y86.029418 E567.668668
G0 X122.750000
G1 Y91.862749 E567.939356
G0 X122.250000
G1 Y86.029418 E568.210045
G0 X120.500000 E568.290045 ;end of channel value 0
G0 X118.750000 E568.370045
G1 Y91.862749 E568.640733
G0 X118.250000
G1 Y86.029418 E568.911421
G0 X117.750000
G1 Y91.862749 E569.182109
G0 X117.250000
G1 Y86.029418 E569.452798
G0 X115.500000 E569.532798 ;end of channel value 0
G0 X113.750000 E569.612798
G1 Y91.862749 E569.883486
G0 X113.250000
G1 Y86.029418 E570.154174
G0 X112.750000
G1 Y91.862749 E570.424862
G0 X112.250000
G1 Y86.029418 E570.695550
G0 X110.500000 E570.775550 ;end of channel value 0
G0 X108.750000 E570.855550
G1 Y91.862749 E571.126239
G0 X108.250000
G1 Y86.029418 E571.396927
G0 X107.750000
G1 Y91.862749 E571.667615
G0 X107.250000
G1 Y86.029418 E571.938303
G0 X105.500000 E572.018303 ;end of channel value 0
G0 X103.750000 E572.098303
G1 Y91.862749 E572.368991
G0 X103.250000
G1 Y86.029418 E572.639680
G0 X102.750000
G1 Y91.862749 E572.910368
G0 X102.250000
G1 Y86.029418 E573.181056
G0 X100.500000 E573.261056 ;end of channel value 0
G0 X98.750000 E573.341056
G1 Y91.862749 E573.611744
G0 X98.250000
G1 Y86.029418 E573.882433
G0 X97.750000
G1 Y91.862749 E574.153121
G0 X97.250000
G1 Y86.029418 E574.423809
G0 X95.500000 E574.503809 ;end of channel value 0
G0 X93.750000 E574.583809
G1 Y91.862749 E574.854497
G0 X93.250000
G1 Y86.029418 E575.125185
G0 X92.750000
G1 Y91.862749 E575.395874
G0 X92.250000
G1 Y86.029418 E575.666562
G0 X90.500000 E575.746562 ;end of channel value 0
G0 X88.750000 E575.826562
G1 Y91.862749 E576.097250
G0 X88.250000
G1 Y86.029418 E576.367938
G0 X87.750000
G1 Y91.862749 E576.638626
G0 X87.250000
G1 Y86.029418 E576.909315
G0 X85.500000 E576.989315 ;end of channel value 0
G0 X83.750000 E577.069315
G1 Y91.862749 E577.340003
G0 X83.250000
G1 Y86.029418 E577.610691
G0 X82.750000
G1 Y91.862749 E577.881379
G0 X82.250000
G1 Y86.029418 E578.152068
G0 X80.500000 E578.232068 ;end of channel value 0
G0 X78.750000 E578.312068
G1 Y91.862749 E578.582756
G0 X78.250000
G1 Y86.029418 E578.853444
G0 X77.750000
G1 Y91.862749 E579.124132
G0 X77.250000
G1 Y86.029418 E579.394820
G0 X75.500000 E579.474820 ;end of channel value 0
G0 X75.200000 ;end of channel value 0
G1 Y91.862749 E579.745509
G0 X70.800000 E579.955509
G1 Y86.029418 E580.226197
G0 X70.500000 ;end of channel value 0
G0 X70.200000 ;end of channel value 0
G1 Y91.862749 E580.496885
G0 X65.800000 E580.706885
G1 Y86.029418 E580.977573
G0 X65.500000 ;end of channel value 0
G0 X65.200000 ;end of channel value 0
G1 Y91.862749 E581.248261
G0 X60.800000 E581.458261
G1 Y86.029418 E581.728950
G0 X60.500000 ;end of channel value 0
G0 X58.750000 E581.808950
G1 Y91.862749 E582.079638
G0 X58.250000
G1 Y86.029418 E582.350326
G0 X57.750000
G1 Y91.862749 E582.621014
G0 X57.250000
G1 Y86.029418 E582.891703
G0 X55.500000 E582.971703 ;end of channel value 0
G0 X53.750000 E583.051703
G1 Y91.862749 E583.322391
G0 X53.250000
G1 Y86.029418 E583.593079
G0 X52.750000
G1 Y91.862749 E583.863767
G0 X52.250000
G1 Y86.029418 E584.134455
G0 X50.500000 E584.214455 ;end of channel value 0
G0 X48.750000 E584.294455
G1 Y91.862749 E584.565144
G0 X48.250000
G1 Y86.029418 E584.835832
G0 X47.750000
G1 Y91.862749 E585.106520
G0 X47.250000
G1 Y86.029418 E585.377208
G0 X45.500000 E585.457208 ;end of channel value 0
G0 X43.750000 E585.537208
G1 Y91.862749 E585.807896
G0 X43.250000
G1 Y86.029418 E586.078585
G0 X42.750000
G1 Y91.862749 E586.349273
G0 X42.250000
G1 Y86.029418 E586.619961
G0 X40.500000 E586.699961 ;end of channel value 0
G0 X38.750000 E586.779961
G1 Y91.862749 E587.050649
G0 X38.250000
G1 Y86.029418 E587.321338
G0 X37.750000
G1 Y91.862749 E587.592026
G0 X37.250000
G1 Y86.029418 E587.862714
G0 X35.500000 E587.942714 ;end of channel value 0
G0 X33.750000 E588.022714
G1 Y91.862749 E588.293402
G0 X33.250000
G1 Y86.029418 E588.564090
G0 X32.750000
G1 Y91.862749 E588.834779
G0 X32.250000
G1 Y86.029418 E589.105467
G0 X30.500000 E589.185467 ;end of channel value 0
G0 X28.750000 E589.265467
G1 Y91.862749 E589.536155
G0 X28.250000
G1 Y86.029418 E589.806843
G0 X27.750000
G1 Y91.862749 E590.077531
G0 X27.250000
G1 Y86.029418 E590.348220
G0 X25.500000 E590.428220 ;end of channel value 0
G0 X23.750000 E590.508220
G1 Y91.862749 E590.778908
G0 X23.250000
G1 Y86.029418 E591.049596
G0 X22.750000
G1 Y91.862749 E591.320284
G0 X22.250000
G1 Y86.029418 E591.590973
G0 X20.500000 E591.670973 ;end of channel value 0
G0 X18.750000 E591.750973
G1 Y91.862749 E592.021661
G0 X18.250000
G1 Y86.029418 E592.292349
G0 X17.750000
G1 Y91.862749 E592.563037
G0 X17.250000
G1 Y86.029418 E592.833725
G0 X15.500000 E592.913725 ;end of channel value 0
G0 X13.750000 E592.993725
G1 Y91.862749 E593.264414
G0 X13.250000
G1 Y86.029418 E593.535102
G0 X12.750000
G1 Y91.862749 E593.805790
G0 X12.250000
G1 Y86.029418 E594.076478
G0 X10.500000 E594.156478 ;end of channel value 0
G0 Y91.862749 X10.000000 ;end of row
G1 X195.5 E602.764367
G0 X195.200000 ;end of channel value 0
G1 Y97.775982 E603.038763
G0 X190.800000 E603.248763
G1 Y91.862749 E603.523159
G0 X190.500000 ;end of channel value 0
G0 X188.750000 E603.603159
G1 Y97.775982 E603.877555
G0 X188.250000
G1 Y91.862749 E604.151951
G0 X187.750000
G1 Y97.775982 E604.426347
G0 X187.250000
G1 Y91.862749 E604.700743
G0 X185.500000 E604.780743 ;end of channel value 0
G0 X183.750000 E604.860743
G1 Y97.775982 E605.135139
G0 X183.250000
G1 Y91.862749 E605.409534
G0 X182.750000
G1 Y97.775982 E605.683930
G0 X182.250000
G1 Y91.862749 E605.958326
G0 X180.500000 E606.038326 ;end of channel value 0
G0 X180.200000 ;end of channel value 0
G1 Y97.775982 E606.312722
G0 X175.800000 E606.522722
G1 Y91.862749 E606.797118
G0 X175.500000 ;end of channel value 0
G0 X173.750000 E606.877118
G1 Y97.775982 E607.151514
G0 X173.250000
G1 Y91.862749 E607.425910
G0 X172.750000
G1 Y97.775982 E607.700306
G0 X172.250000
G1 Y91.862749 E607.974702
G0 X170.500000 E608.054702 ;end of channel value 0
G0 X170.200000 ;end of channel value 0
G1 Y97.775982 E608.329098
G0 X165.800000 E608.539098
G1 Y91.862749 E608.813494
G0 X165.500000 ;end of channel value 0
G0 X165.200000 ;end of channel value 0
G1 Y97.775982 E609.087890
G0 X160.800000 E609.297890
G1 Y91.862749 E609.572286
G0 X160.500000 ;end of channel value 0
G0 X158.750000 E609.652286
G1 Y97.775982 E609.926682
G0 X158.250000
G1 Y91.862749 E610.201078
G0 X157.750000
G1 Y97.775982 E610.475474
G0 X157.250000
G1 Y91.862749 E610.749870
G0 X155.500000 E610.829870 ;end of channel value 0
G0 X153.750000 E610.909870
G1 Y97.775982 E611.184266
G0 X153.250000
G1 Y91.862749 E611.458662
G0 X152.750000
G1 Y97.775982 E611.733058
G0 X152.250000
G1 Y91.862749 E612.007454
G0 X150.500000 E612.087454 ;end of channel value 0
G0 X148.750000 E612.167454
G1 Y97.775982 E612.441850
G0 X148.250000
G1 Y91.862749 E612.716246
G0 X147.750000
G1 Y97.775982 E612.990642
G0 X147.250000
G1 Y91.862749 E613.265037
G0 X145.500000 E613.345037 ;end of channel value 0
G0 X143.750000 E613.425037
G1 Y97.775982 E613.699433
G0 X143.250000
G1 Y91.862749 E613.973829
G0 X142.750000
G1 Y97.775982 E614.248225
G0 X142.250000
G1 Y91.862749 E614.522621
G0 X140.500000 E614.602621 ;end of channel value 0
G0 X138.750000 E614.682621
G1 Y97.775982 E614.957017
G0 X138.250000
G1 Y91.862749 E615.231413
G0 X137.750000
G1 Y97.775982 E615.505809
G0 X137.250000
G1 Y91.862749 E615.780205
G0 X135.500000 E615.860205 ;end of channel value 0
G0 X133.750000 E615.940205
G1 Y97.775982 E616.214601
G0 X133.250000
G1 Y91.862749 E616.488997
G0 X132.750000
G1 Y97.775982 E616.763393
G0 X132.250000
G1 Y91.862749 E617.037789
G0 X130.500000 E617.117789 ;end of channel value 0
G0 X128.750000 E617.197789
G1 Y97.775982 E617.472185
G0 X128.250000
G1 Y91.862749 E617.746581
G0 X127.750000
G1 Y97.775982 E618.020977
G0 X127.250000
G1 Y91.862749 E618.295373
G0 X125.500000 E618.375373 ;end of channel value 0
G0 X123.750000 E618.455373
G1 Y97.775982 E618.729769
G0 X123.250000
G1 Y91.862749 E619.004165
G0 X122.750000
G1 Y97.775982 E619.278561
G0 X122.250000
G1 Y91.862749 E619.552957
G0 X120.500000 E619.632957 ;end of channel value 0
G0 X118.750000 E619.712957
G1 Y97.775982 E619.987353
G0 X118.250000
G1 Y91.862749 E620.261749
G0 X117.750000
G1 Y97.775982 E620.536144
G0 X117.250000
G1 Y91.862749 E620.810540
G0 X115.500000 E620.890540 ;end of channel value 0
G0 X113.750000 E620.970540
G1 Y97.775982 E621.244936
G0 X113.250000
G1 Y91.862749 E621.519332
G0 X112.750000
G1 Y97.775982 E621.793728
G0 X112.250000
G1 Y91.862749 E622.068124
G0 X110.500000 E622.148124 ;end of channel value 0
G0 X108.750000 E622.228124
G1 Y97.775982 E622.502520
G0 X108.250000
G1 Y91.862749 E622.776916
G0 X107.750000
G1 Y97.775982 E623.051312
G0 X107.250000
G1 Y91.862749 E623.325708
G0 X105.500000 E623.405708 ;end of channel value 0
G0 X103.750000 E623.485708
G1 Y97.775982 E623.760104
G0 X103.250000
G1 Y91.862749 E624.034500
G0 X102.750000
G1 Y97.775982 E624.308896
G0 X102.250000
G1 Y91.862749 E624.583292
G0 X100.500000 E624.663292 ;end of channel value 0
G0 X98.750000 E624.743292
G1 Y97.775982 E625.017688
G0 X98.250000
G1 Y91.862749 E625.292084
G0 X97.750000
G1 Y97.775982 E625.566480
G0 X97.250000
G1 Y91.862749 E625.840876
G0 X95.500000 E625.920876 ;end of channel value 0
G0 X93.750000 E626.000876
G1 Y97.775982 E626.275272
G0 X93.250000
G1 Y91.862749 E626.549668
G0 X92.750000
G1 Y97.775982 E626.824064
G0 X92.250000
G1 Y91.862749 E627.098460
G0 X90.500000 E627.178460 ;end of channel value 0
G0 X88.750000 E627.258460
G1 Y97.775982 E627.532856
G0 X88.250000
G1 Y91.862749 E627.807251
G0 X87.750000
G1 Y97.775982 E628.081647
G0 X87.250000
G1 Y91.862749 E628.356043
G0 X85.500000 E628.436043 ;end of channel value 0
G0 X83.750000 E628.516043
G1 Y97.775982 E628.790439
G0 X83.250000
G1 Y91.862749 E629.064835
G0 X82.750000
G1 Y97.775982 E629.339231
G0 X82.250000
G1 Y91.862749 E629.613627
G0 X80.500000 E629.693627 ;end of channel value 0
G0 X78.750000 E629.773627
G1 Y97.775982 E630.048023
G0 X78.250000
G1 Y91.862749 E630.322419
G0 X77.750000
G1 Y97.775982 E630.596815
G0 X77.250000
G1 Y91.862749 E630.871211
G0 X75.500000 E630.951211 ;end of channel value 0
G0 X73.750000 E631.031211
G1 Y97.775982 E631.305607
G0 X73.250000
G1 Y91.862749 E631.580003
G0 X72.750000
G1 Y97.775982 E631.854399
G0 X72.250000
G1 Y91.862749 E632.128795
G0 X70.500000 E632.208795 ;end of channel value 0
G0 X70.200000 ;end of channel value 0
G1 Y97.775982 E632.483191
G0 X65.800000 E632.693191
G1 Y91.862749 E632.967587
G0 X65.500000 ;end of channel value 0
G0 X65.200000 ;end of channel value 0
G1 Y97.775982 E633.241983
G0 X60.800000 E633.451983
G1 Y91.862749 E633.726379
G0 X60.500000 ;end of channel value 0
G0 X58.750000 E633.806379
G1 Y97.775982 E634.080775
G0 X58.250000
G1 Y91.862749 E634.355171
G0 X57.750000
G1 Y97.775982 E634.629567
G0 X57.250000
G1 Y91.862749 E634.903963
G0 X55.500000 E634.983963 ;end of channel value 0
G0 X53.750000 E635.063963
G1 Y97.775982 E635.338358
G0 X53.250000
G1 Y91.862749 E635.612754
G0 X52.750000
G1 Y97.775982 E635.887150
G0 X52.250000
G1 Y91.862749 E636.161546
G0 X50.500000 E636.241546 ;end of channel value 0
G0 X50.200000 ;end of channel value 0
G1 Y97.775982 E636.515942
G0 X45.800000 E636.725942
G1 Y91.862749 E637.000338
G0 X45.500000 ;end of channel value 0
G0 X43.750000 E637.080338
G1 Y97.775982 E637.354734
G0 X43.250000
G1 Y91.862749 E637.629130
G0 X42.750000
G1 Y97.775982 E637.903526
G0 X42.250000
G1 Y91.862749 E638.177922
G0 X40.500000 E638.257922 ;end of channel value 0
G0 X38.750000 E638.337922
G1 Y97.775982 E638.612318
G0 X38.250000
G1 Y91.862749 E638.886714
G0 X37.750000
G1 Y97.775982 E639.161110
G0 X37.250000
G1 Y91.862749 E639.435506
G0 X35.500000 E639.515506 ;end of channel value 0
G0 X33.750000 E639.595506
G1 Y97.775982 E639.869902
G0 X33.250000
G1 Y91.862749 E640.144298
G0 X32.750000
G1 Y97.775982 E640.418694
G0 X32.250000
G1 Y91.862749 E640.693090
G0 X30.500000 E640.773090 ;end of channel value 0
G0 X28.750000 E640.853090
G1 Y97.775982 E641.127486
G0 X28.250000
G1 Y91.862749 E641.401882
G0 X27.750000
G1 Y97.775982 E641.676278
G0 X27.250000
G1 Y91.862749 E641.950674
G0 X25.500000 E642.030674 ;end of channel value 0
G0 X25.200000 ;end of channel value 0
G1 Y97.775982 E642.305070
G0 X20.800000 E642.515070
G1 Y91.862749 E642.789465
G0 X20.500000 ;end of channel value 0
G0 X20.200000 ;end of channel value 0
G1 Y97.775982 E643.063861
G0 X15.800000 E643.273861
G1 Y91.862749 E643.548257
G0 X15.500000 ;end of channel value 0
G0 X13.750000 E643.628257
G1 Y97.775982 E643.902653
G0 X13.250000
G1 Y91.862749 E644.177049
G0 X12.750000
G1 Y97.775982 E644.451445
G0 X12.250000
G1 Y91.862749 E644.725841
G0 X10.500000 E644.805841 ;end of channel value 0
G0 Y97.775982 X10.000000 ;end of row
G1 X195.5 E653.413730
G0 X195.200000 ;end of channel value 0
G1 Y103.523116 E653.680418
G0 X190.800000 E653.890418
G1 Y97.775982 E654.157107
G0 X190.500000 ;end of channel value 0
G0 X188.750000 E654.237107
G1 Y103.523116 E654.503795
G0 X188.250000
G1 Y97.775982 E654.770483
G0 X187.750000
G1 Y103.523116 E655.037171
G0 X187.250000
G1 Y97.775982 E655.303860
G0 X185.500000 E655.383860 ;end of channel value 0
G0 X183.750000 E655.463860
G1 Y103.523116 E655.730548
G0 X183.250000
G1 Y97.775982 E655.997236
G0 X182.750000
G1 Y103.523116 E656.263925
G0 X182.250000
G1 Y97.775982 E656.530613
G0 X180.500000 E656.610613 ;end of channel value 0
G0 X180.200000 ;end of channel value 0
G1 Y103.523116 E656.877301
G0 X175.800000 E657.087301
G1 Y97.775982 E657.353990
G0 X175.500000 ;end of channel value 0
G0 X173.750000 E657.433990
G1 Y103.523116 E657.700678
G0 X173.250000
G1 Y97.775982 E657.967366
G0 X172.750000
G1 Y103.523116 E658.234055
G0 X172.250000
G1 Y97.775982 E658.500743
G0 X170.500000 E658.580743 ;end of channel value 0
G0 X168.750000 E658.660743
G1 Y103.523116 E658.927431
G0 X168.250000
G1 Y97.775982 E659.194120
G0 X167.750000
G1 Y103.523116 E659.460808
G0 X167.250000
G1 Y97.775982 E659.727496
G0 X165.500000 E659.807496 ;end of channel value 0
G0 X163.750000 E659.887496
G1 Y103.523116 E660.154185
G0 X163.250000
G1 Y97.775982 E660.420873
G0 X162.750000
G1 Y103.523116 E660.687561
G0 X162.250000
G1 Y97.775982 E660.954250
G0 X160.500000 E661.034250 ;end of channel value 0
G0 X158.750000 E661.114250
G1 Y103.523116 E661.380938
G0 X158.250000
G1 Y97.775982 E661.647626
G0 X157.750000
G1 Y103.523116 E661.914315
G0 X157.250000
G1 Y97.775982 E662.181003
G0 X155.500000 E662.261003 ;end of channel value 0
G0 X153.750000 E662.341003
G1 Y103.523116 E662.607691
G0 X153.250000
G1 Y97.775982 E662.874380
G0 X152.750000
G1 Y103.523116 E663.141068
G0 X152.250000
G1 Y97.775982 E663.407756
G0 X150.500000 E663.487756 ;end of channel value 0
G0 X148.750000 E663.567756
G1 Y103.523116 E663.834444
G0 X148.250000
G1 Y97.775982 E664.101133
G0 X147.750000
G1 Y103.523116 E664.367821
G0 X147.250000
G1 Y97.775982 E664.634509
G0 X145.500000 E664.714509 ;end of channel value 0
G0 X143.750000 E664.794509
G1 Y103.523116 E665.061198
G0 X143.250000
G1 Y97.775982 E665.327886
G0 X142.750000
G1 Y103.523116 E665.594574
G0 X142.250000
G1 Y97.775982 E665.861263
G0 X140.500000 E665.941263 ;end of channel value 0
G0 X138.750000 E666.021263
G1 Y103.523116 E666.287951
G0 X138.250000
G1 Y97.775982 E666.554639
G0 X137.750000
G1 Y103.523116 E666.821328
G0 X137.250000
G1 Y97.775982 E667.088016
G0 X135.500000 E667.168016 ;end of channel value 0
G0 X133.750000 E667.248016
G1 Y103.523116 E667.514704
G0 X133.250000
G1 Y97.775982 E667.781393
G0 X132.750000
G1 Y103.523116 E668.048081
G0 X132.250000
G1 Y97.775982 E668.314769
G0 X130.500000 E668.394769 ;end of channel value 0
G0 X128.750000 E668.474769
G1 Y103.523116 E668.741458
G0 X128.250000
G1 Y97.775982 E669.008146
G0 X127.750000
G1 Y103.523116 E669.274834
G0 X127.250000
G1 Y97.775982 E669.541523
G0 X125.500000 E669.621523 ;end of channel value 0
G0 X123.750000 E669.701523
G1 Y103.523116 E669.968211
G0 X123.250000
G1 Y97.775982 E670.234899
G0 X122.750000
G1 Y103.523116 E670.501588
G0 X122.250000
G1 Y97.775982 E670.768276
G0 X120.500000 E670.848276 ;end of channel value 0
G0 X118.750000 E670.928276
G1 Y103.523116 E671.194964
G0 X118.250000
G1 Y97.775982 E671.461653
G0 X117.750000
G1 Y103.523116 E671.728341
G0 X117.250000
G1 Y97.775982 E671.995029
G0 X115.500000 E672.075029 ;end of channel value 0
G0 X113.750000 E672.155029
G1 Y103.523116 E672.421717
G0 X113.250000
G1 Y97.775982 E672.688406
G0 X112.750000
G1 Y103.523116 E672.955094
G0 X112.250000
G1 Y97.775982 E673.221782
G0 X110.500000 E673.301782 ;end of channel value 0
G0 X108.750000 E673.381782
G1 Y103.523116 E673.648471
G0 X108.250000
G1 Y97.775982 E673.915159
G0 X107.750000
G1 Y103.523116 E674.181847
G0 X107.250000
G1 Y97.775982 E674.448536
G0 X105.500000 E674.528536 ;end of channel value 0
G0 X103.750000 E674.608536
G1 Y103.523116 E674.875224
G0 X103.250000
G1 Y97.775982 E675.141912
G0 X102.750000
G1 Y103.523116 E675.408601
G0 X102.250000
G1 Y97.775982 E675.675289
G0 X100.500000 E675.755289 ;end of channel value 0
G0 X98.750000 E675.835289
G1 Y103.523116 E676.101977
G0 X98.250000
G1 Y97.775982 E676.368666
G0 X97.750000
G1 Y103.523116 E676.635354
G0 X97.250000
G1 Y97.775982 E676.902042
G0 X95.500000 E676.982042 ;end of channel value 0
G0 X93.750000 E677.062042
G1 Y103.523116 E677.328731
G0 X93.250000
G1 Y97.775982 E677.595419
G0 X92.750000
G1 Y103.523116 E677.862107
G0 X92.250000
G1 Y97.775982 E678.128796
G0 X90.500000 E678.208796 ;end of channel value 0
G0 X88.750000 E678.288796
G1 Y103.523116 E678.555484
G0 X88.250000
G1 Y97.775982 E678.822172
G0 X87.750000
G1 Y103.523116 E679.088861
G0 X87.250000
G1 Y97.775982 E679.355549
G0 X85.500000 E679.435549 ;end of channel value 0
G0 X83.750000 E679.515549
G1 Y103.523116 E679.782237
G0 X83.250000
G1 Y97.775982 E680.048926
G0 X82.750000
G1 Y103.523116 E680.315614
G0 X82.250000
G1 Y97.775982 E680.582302
G0 X80.500000 E680.662302 ;end of channel value 0
G0 X78.750000 E680.742302
G1 Y103.523116 E681.008991
G0 X78.250000
G1 Y97.775982 E681.275679
G0 X77.750000
G1 Y103.523116 E681.542367
G0 X77.250000
G1 Y97.775982 E681.809055
G0 X75.500000 E681.889055 ;end of channel value 0
G0 X73.750000 E681.969055
G1 Y103.523116 E682.235744
G0 X73.250000
G1 Y97.775982 E682.502432
G0 X72.750000
G1 Y103.523116 E682.769120
G0 X72.250000
G1 Y97.775982 E683.035809
G0 X70.500000 E683.115809 ;end of channel value 0
G0 X68.750000 E683.195809
G1 Y103.523116 E683.462497
G0 X68.250000
G1 Y97.775982 E683.729185
G0 X67.750000
G1 Y103.523116 E683.995874
G0 X67.250000
G1 Y97.775982 E684.262562
G0 X65.500000 E684.342562 ;end of channel value 0
G0 X63.750000 E684.422562
G1 Y103.523116 E684.689250
G0 X63.250000
G1 Y97.775982 E684.955939
G0 X62.750000
G1 Y103.523116 E685.222627
G0 X62.250000
G1 Y97.775982 E685.489315
G0 X60.500000 E685.569315 ;end of channel value 0
G0 X58.750000 E685.649315
G1 Y103.523116 E685.916004
G0 X58.250000
G1 Y97.775982 E686.182692
G0 X57.750000
G1 Y103.523116 E686.449380
G0 X57.250000
G1 Y97.775982 E686.716069
G0 X55.500000 E686.796069 ;end of channel value 0
G0 X53.750000 E686.876069
G1 Y103.523116 E687.142757
G0 X53.250000
G1 Y97.775982 E687.409445
G0 X52.750000
G1 Y103.523116 E687.676134
G0 X52.250000
G1 Y97.775982 E687.942822
G0 X50.500000 E688.022822 ;end of channel value 0
G0 X48.750000 E688.102822
G1 Y103.523116 E688.369510
G0 X48.250000
G1 Y97.775982 E688.636199
G0 X47.750000
G1 Y103.523116 E688.902887
G0 X47.250000
G1 Y97.775982 E689.169575
G0 X45.500000 E689.249575 ;end of channel value 0
G0 X43.750000 E689.329575
G1 Y103.523116 E689.596264
G0 X43.250000
G1 Y97.775982 E689.862952
G0 X42.750000
G1 Y103.523116 E690.129640
G0 X42.250000
G1 Y97.775982 E690.396328
G0 X40.500000 E690.476328 ;end of channel value 0
G0 X40.200000 ;end of channel value 0
G1 Y103.523116 E690.743017
G0 X35.800000 E690.953017
G1 Y97.775982 E691.219705
G0 X35.500000 ;end of channel value 0
G0 X35.200000 ;end of channel value 0
G1 Y103.523116 E691.486393
G0 X30.800000 E691.696393
G1 Y97.775982 E691.963082
G0 X30.500000 ;end of channel value 0
G0 X30.200000 ;end of channel value 0
G1 Y103.523116 E692.229770
G0 X25.800000 E692.439770
G1 Y97.775982 E692.706458
G0 X25.500000 ;end of channel value 0
G0 X23.750000 E692.786458
G1 Y103.523116 E693.053147
G0 X23.250000
G1 Y97.775982 E693.319835
G0 X22.750000
G1 Y103.523116 E693.586523
G0 X22.250000
G1 Y97.775982 E693.853212
G0 X20.500000 E693.933212 ;end of channel value 0
G0 X18.750000 E694.013212
G1 Y103.523116 E694.279900
G0 X18.250000
G1 Y97.775982 E694.546588
G0 X17.750000
G1 Y103.523116 E694.813277
G0 X17.250000
G1 Y97.775982 E695.079965
G0 X15.500000 E695.159965 ;end of channel value 0
G0 X13.750000 E695.239965
G1 Y103.523116 E695.506653
G0 X13.250000
G1 Y97.775982 E695.773342
G0 X12.750000
G1 Y103.523116 E696.040030
G0 X12.250000
G1 Y97.775982 E696.306718
G0 X10.500000 E696.386718 ;end of channel value 0
G0 Y103.523116 X10.000000 ;end of row
G1 X195.5 E704.994607
G0 X195.200000 ;end of channel value 0
G1 Y109.436335 E705.269002
G0 X190.800000 E705.479002
G1 Y103.523116 E705.753398
G0 X190.500000 ;end of channel value 0
G0 X188.750000 E705.833398
G1 Y109.436335 E706.107793
G0 X188.250000
G1 Y103.523116 E706.382188
G0 X187.750000
G1 Y109.436335 E706.656584
G0 X187.250000
G1 Y103.523116 E706.930979
G0 X185.500000 E707.010979 ;end of channel value 0
G0 X183.750000 E707.090979
G1 Y109.436335 E707.365374
G0 X183.250000
G1 Y103.523116 E707.639769
G0 X182.750000
G1 Y109.436335 E707.914165
G0 X182.250000
G1 Y103.523116 E708.188560
G0 X180.500000 E708.268560 ;end of channel value 0
G0 X180.200000 ;end of channel value 0
G1 Y109.436335 E708.542955
G0 X175.800000 E708.752955
G1 Y103.523116 E709.027351
G0 X175.500000 ;end of channel value 0
G0 X175.200000 ;end of channel value 0
G1 Y109.436335 E709.301746
G0 X170.800000 E709.511746
G1 Y103.523116 E709.786141
G0 X170.500000 ;end of channel value 0
G0 X168.750000 E709.866141
G1 Y109.436335 E710.140537
G0 X168.250000
G1 Y103.523116 E710.414932
G0 X167.750000
G1 Y109.436335 E710.689327
G0 X167.250000
G1 Y103.523116 E710.963723
G0 X165.500000 E711.043723 ;end of channel value 0
G0 X163.750000 E711.123723
G1 Y109.436335 E711.398118
G0 X163.250000
G1 Y103.523116 E711.672513
G0 X162.750000
G1 Y109.436335 E711.946909
G0 X162.250000
G1 Y103.523116 E712.221304
G0 X160.500000 E712.301304 ;end of channel value 0
G0 X160.200000 ;end of channel value 0
G1 Y109.436335 E712.575699
G0 X155.800000 E712.785699
G1 Y103.523116 E713.060095
G0 X155.500000 ;end of channel value 0
G0 X153.750000 E713.140095
G1 Y109.436335 E713.414490
G0 X153.250000
G1 Y103.523116 E713.688885
G0 X152.750000
G1 Y109.436335 E713.963281
G0 X152.250000
G1 Y103.523116 E714.237676
G0 X150.500000 E714.317676 ;end of channel value 0
G0 X148.750000 E714.397676
G1 Y109.436335 E714.672071
G0 X148.250000
G1 Y103.523116 E714.946467
G0 X147.750000
G1 Y109.436335 E715.220862
G0 X147.250000
G1 Y103.523116 E715.495257
G0 X145.500000 E715.575257 ;end of channel value 0
G0 X143.750000 E715.655257
G1 Y109.436335 E715.929653
G0 X143.250000
G1 Y103.523116 E716.204048
G0 X142.750000
G1 Y109.436335 E716.478443
G0 X142.250000
G1 Y103.523116 E716.752839
G0 X140.500000 E716.832839 ;end of channel value 0
G0 X138.750000 E716.912839
G1 Y109.436335 E717.187234
G0 X138.250000
G1 Y103.523116 E717.461629
G0 X137.750000
G1 Y109.436335 E717.736025
G0 X137.250000
G1 Y103.523116 E718.010420
G0 X135.500000 E718.090420 ;end of channel value 0
G0 X133.750000 E718.170420
G1 Y109.436335 E718.444815
G0 X133.250000
G1 Y103.523116 E718.719211
G0 X132.750000
G1 Y109.436335 E718.993606
G0 X132.250000
G1 Y103.523116 E719.268001
G0 X130.500000 E719.348001 ;end of channel value 0
G0 X128.750000 E719.428001
G1 Y109.436335 E719.702396
G0 X128.250000
G1 Y103.523116 E719.976792
G0 X127.750000
G1 Y109.436335 E720.251187
G0 X127.250000
G1 Y103.523116 E720.525582
G0 X125.500000 E720.605582 ;end of channel value 0
G0 X123.750000 E720.685582
G1 Y109.436335 E720.959978
G0 X123.250000
G1 Y103.523116 E721.234373
G0 X122.750000
G1 Y109.436335 E721.508768
G0 X122.250000
G1 Y103.523116 E721.783164
G0 X120.500000 E721.863164 ;end of channel value 0
G0 X118.750000 E721.943164
G1 Y109.436335 E722.217559
G0 X118.250000
G1 Y103.523116 E722.491954
G0 X117.750000
G1 Y109.436335 E722.766350
G0 X117.250000
G1 Y103.523116 E723.040745
G0 X115.500000 E723.120745 ;end of channel value 0
G0 X113.750000 E723.200745
G1 Y109.436335 E723.475140
G0 X113.250000
G1 Y103.523116 E723.749536
G0 X112.750000
G1 Y109.436335 E724.023931
G0 X112.250000
G1 Y103.523116 E724.298326
G0 X110.500000 E724.378326 ;end of channel value 0
G0 X108.750000 E724.458326
G1 Y109.436335 E724.732722
G0 X108.250000
G1 Y103.523116 E725.007117
G0 X107.750000
G1 Y109.436335 E725.281512
G0 X107.250000
G1 Y103.523116 E725.555908
G0 X105.500000 E725.635908 ;end of channel value 0
G0 X103.750000 E725.715908
G1 Y109.436335 E725.990303
G0 X103.250000
G1 Y103.523116 E726.264698
G0 X102.750000
G1 Y109.436335 E726.539094
G0 X102.250000
G1 Y103.523116 E726.813489
G0 X100.500000 E726.893489 ;end of channel value 0
G0 X98.750000 E726.973489
G1 Y109.436335 E727.247884
G0 X98.250000
G1 Y103.523116 E727.522280
G0 X97.750000
G1 Y109.436335 E727.796675
G0 X97.250000
G1 Y103.523116 E728.071070
G0 X95.500000 E728.151070 ;end of channel value 0
G0 X93.750000 E728.231070
G1 Y109.436335 E728.505466
G0 X93.250000
G1 Y103.523116 E728.779861
G0 X92.750000
G1 Y109.436335 E729.054256
G0 X92.250000
G1 Y103.523116 E729.328652
G0 X90.500000 E729.408652 ;end of channel value 0
G0 X88.750000 E729.488652
G1 Y109.436335 E729.763047
G0 X88.250000
G1 Y103.523116 E730.037442
G0 X87.750000
G1 Y109.436335 E730.311838
G0 X87.250000
G1 Y103.523116 E730.586233
G0 X85.500000 E730.666233 ;end of channel value 0
G0 X83.750000 E730.746233
G1 Y109.436335 E731.020628
G0 X83.250000
G1 Y103.523116 E731.295023
G0 X82.750000
G1 Y109.436335 E731.569419
G0 X82.250000
G1 Y103.523116 E731.843814
G0 X80.500000 E731.923814 ;end of channel value 0
G0 X78.750000 E732.003814
G1 Y109.436335 E732.278209
G0 X78.250000
G1 Y103.523116 E732.552605
G0 X77.750000
G1 Y109.436335 E732.827000
G0 X77.250000
G1 Y103.523116 E733.101395
G0 X75.500000 E733.181395 ;end of channel value 0
G0 X73.750000 E733.261395
G1 Y109.436335 E733.535791
G0 X73.250000
G1 Y103.523116 E733.810186
G0 X72.750000
G1 Y109.436335 E734.084581
G0 X72.250000
G1 Y103.523116 E734.358977
G0 X70.500000 E734.438977 ;end of channel value 0
G0 X70.200000 ;end of channel value 0
G1 Y109.436335 E734.713372
G0 X65.800000 E734.923372
G1 Y103.523116 E735.197767
G0 X65.500000 ;end of channel value 0
G0 X65.200000 ;end of channel value 0
G1 Y109.436335 E735.472163
G0 X60.800000 E735.682163
G1 Y103.523116 E735.956558
G0 X60.500000 ;end of channel value 0
G0 X58.750000 E736.036558
G1 Y109.436335 E736.310953
G0 X58.250000
G1 Y103.523116 E736.585349
G0 X57.750000
G1 Y109.436335 E736.859744
G0 X57.250000
G1 Y103.523116 E737.134139
G0 X55.500000 E737.214139 ;end of channel value 0
G0 X53.750000 E737.294139
G1 Y109.436335 E737.568535
G0 X53.250000
G1 Y103.523116 E737.842930
G0 X52.750000
G1 Y109.436335 E738.117325
G0 X52.250000
G1 Y103.523116 E738.391721
G0 X50.500000 E738.471721 ;end of channel value 0
G0 X50.200000 ;end of channel value 0
G1 Y109.436335 E738.746116
G0 X45.800000 E738.956116
G1 Y103.523116 E739.230511
G0 X45.500000 ;end of channel value 0
G0 X43.750000 E739.310511
G1 Y109.436335 E739.584907
G0 X43.250000
G1 Y103.523116 E739.859302
G0 X42.750000
G1 Y109.436335 E740.133697
G0 X42.250000
G1 Y103.523116 E740.408093
G0 X40.500000 E740.488093 ;end of channel value 0
G0 X38.750000 E740.568093
G1 Y109.436335 E740.842488
G0 X38.250000
G1 Y103.523116 E741.116883
G0 X37.750000
G1 Y109.436335 E741.391279
G0 X37.250000
G1 Y103.523116 E741.665674
G0 X35.500000 E741.745674 ;end of channel value 0
G0 X33.750000 E741.825674
G1 Y109.436335 E742.100069
G0 X33.250000
G1 Y103.523116 E742.374465
G0 X32.750000
G1 Y109.436335 E742.648860
G0 X32.250000
G1 Y103.523116 E742.923255
G0 X30.500000 E743.003255 ;end of channel value 0
G0 X28.750000 E743.083255
G1 Y109.436335 E743.357650
G0 X28.250000
G1 Y103.523116 E743.632046
G0 X27.750000
G1 Y109.436335 E743.906441
G0 X27.250000
G1 Y103.523116 E744.180836
G0 X25.500000 E744.260836 ;end of channel value 0
G0 X25.200000 ;end of channel value 0
G1 Y109.436335 E744.535232
G0 X20.800000 E744.745232
G1 Y103.523116 E745.019627
G0 X20.500000 ;end of channel value 0
G0 X20.200000 ;end of channel value 0
G1 Y109.436335 E745.294022
G0 X15.800000 E745.504022
G1 Y103.523116 E745.778418
G0 X15.500000 ;end of channel value 0
G0 X13.750000 E745.858418
G1 Y109.436335 E746.132813
G0 X13.250000
G1 Y103.523116 E746.407208
G0 X12.750000
G1 Y109.436335 E746.681604
G0 X12.250000
G1 Y103.523116 E746.955999
G0 X10.500000 E747.035999 ;end of channel value 0
G0 Y109.436335 X10.000000 ;end of row
G1 X195.5 E755.643888
G0 X193.750000 E755.723888
G1 Y116.102998 E756.033246
G0 X193.250000
G1 Y109.436335 E756.342603
G0 X192.750000
G1 Y116.102998 E756.651961
G0 X192.250000
G1 Y109.436335 E756.961319
G0 X190.500000 E757.041319 ;end of channel value 0
G0 X188.750000 E757.121319
G1 Y116.102998 E757.430677
G0 X188.250000
G1 Y109.436335 E757.740035
G0 X187.750000
G1 Y116.102998 E758.049393
G0 X187.250000
G1 Y109.436335 E758.358751
G0 X185.500000 E758.438751 ;end of channel value 0
G0 X183.750000 E758.518751
G1 Y116.102998 E758.828109
G0 X183.250000
G1 Y109.436335 E759.137467
G0 X182.750000
G1 Y116.102998 E759.446825
G0 X182.250000
G1 Y109.436335 E759.756183
G0 X180.500000 E759.836183 ;end of channel value 0
G0 X178.750000 E759.916183
G1 Y116.102998 E760.225541
G0 X178.250000
G1 Y109.436335 E760.534898
G0 X177.750000
G1 Y116.102998 E760.844256
G0 X177.250000
G1 Y109.436335 E761.153614
G0 X175.500000 E761.233614 ;end of channel value 0
G0 X175.200000 ;end of channel value 0
G1 Y116.102998 E761.542972
G0 X170.800000 E761.752972
G1 Y109.436335 E762.062330
G0 X170.500000 ;end of channel value 0
G0 X168.750000 E762.142330
G1 Y116.102998 E762.451688
G0 X168.250000
G1 Y109.436335 E762.761046
G0 X167.750000
G1 Y116.102998 E763.070404
G0 X167.250000
G1 Y109.436335 E763.379762
G0 X165.500000 E763.459762 ;end of channel value 0
G0 X163.750000 E763.539762
G1 Y116.102998 E763.849120
G0 X163.250000
G1 Y109.436335 E764.158478
G0 X162.750000
G1 Y116.102998 E764.467835
G0 X162.250000
G1 Y109.436335 E764.777193
G0 X160.500000 E764.857193 ;end of channel value 0
G0 X160.200000 ;end of channel value 0
G1 Y116.102998 E765.166551
G0 X155.800000 E765.376551
G1 Y109.436335 E765.685909
G0 X155.500000 ;end of channel value 0
G0 X153.750000 E765.765909
G1 Y116.102998 E766.075267
G0 X153.250000
G1 Y109.436335 E766.384625
G0 X152.750000
G1 Y116.102998 E766.693983
G0 X152.250000
G1 Y109.436335 E767.003341
G0 X150.500000 E767.083341 ;end of channel value 0
G0 X148.750000 E767.163341
G1 Y116.102998 E767.472699
G0 X148.250000
G1 Y109.436335 E767.782057
G0 X147.750000
G1 Y116.102998 E768.091415
G0 X147.250000
G1 Y109.436335 E768.400772
G0 X145.500000 E768.480772 ;end of channel value 0
G0 X143.750000 E768.560772
G1 Y116.102998 E768.870130
G0 X143.250000
G1 Y109.436335 E769.179488
G0 X142.750000
G1 Y116.102998 E769.488846
G0 X142.250000
G1 Y109.436335 E769.798204
G0 X140.500000 E769.878204 ;end of channel value 0
G0 X138.750000 E769.958204
G1 Y116.102998 E770.267562
G0 X138.250000
G1 Y109.436335 E770.576920
G0 X137.750000
G1 Y116.102998 E770.886278
G0 X137.250000
G1 Y109.436335 E771.195636
G0 X135.500000 E771.275636 ;end of channel value 0
G0 X133.750000 E771.355636
G1 Y116.102998 E771.664994
G0 X133.250000
G1 Y109.436335 E771.974352
G0 X132.750000
G1 Y116.102998 E772.283710
G0 X132.250000
G1 Y109.436335 E772.593067
G0 X130.500000 E772.673067 ;end of channel value 0
G0 X128.750000 E772.753067
G1 Y116.102998 E773.062425
G0 X128.250000
G1 Y109.436335 E773.371783
G0 X127.750000
G1 Y116.102998 E773.681141
G0 X127.250000
G1 Y109.436335 E773.990499
G0 X125.500000 E774.070499 ;end of channel value 0
G0 X123.750000 E774.150499
G1 Y116.102998 E774.459857
G0 X123.250000
G1 Y109.436335 E774.769215
G0 X122.750000
G1 Y116.102998 E775.078573
G0 X122.250000
G1 Y109.436335 E775.387931
G0 X120.500000 E775.467931 ;end of channel value 0
G0 X118.750000 E775.547931
G1 Y116.102998 E775.857289
G0 X118.250000
G1 Y109.436335 E776.166647
G0 X117.750000
G1 Y116.102998 E776.476004
G0 X117.250000
G1 Y109.436335 E776.785362
G0 X115.500000 E776.865362 ;end of channel value 0
G0 X113.750000 E776.945362
G1 Y116.102998 E777.254720
G0 X113.250000
G1 Y109.436335 E777.564078
G0 X112.750000
G1 Y116.102998 E777.873436
G0 X112.250000
G1 Y109.436335 E778.182794
G0 X110.500000 E778.262794 ;end of channel value 0
G0 X108.750000 E778.342794
G1 Y116.102998 E778.652152
G0 X108.250000
G1 Y109.436335 E778.961510
G0 X107.750000
G1 Y116.102998 E779.270868
G0 X107.250000
G1 Y109.436335 E779.580226
G0 X105.500000 E779.660226 ;end of channel value 0
G0 X103.750000 E779.740226
G1 Y116.102998 E780.049584
G0 X103.250000
G1 Y109.436335 E780.358942
G0 X102.750000
G1 Y116.102998 E780.668299
G0 X102.250000
G1 Y109.436335 E780.977657
G0 X100.500000 E781.057657 ;end of channel value 0
G0 X98.750000 E781.137657
G1 Y116.102998 E781.447015
G0 X98.250000
G1 Y109.436335 E781.756373
G0 X97.750000
G1 Y116.102998 E782.065731
G0 X97.250000
G1 Y109.436335 E782.375089
G0 X95.500000 E782.455089 ;end of channel value 0
G0 X93.750000 E782.535089
G1 Y116.102998 E782.844447
G0 X93.250000
G1 Y109.436335 E783.153805
G0 X92.750000
G1 Y116.102998 E783.463163
G0 X92.250000
G1 Y109.436335 E783.772521
G0 X90.500000 E783.852521 ;end of channel value 0
G0 X88.750000 E783.932521
G1 Y116.102998 E784.241879
G0 X88.250000
G1 Y109.436335 E784.551236
G0 X87.750000
G1 Y116.102998 E784.860594
G0 X87.250000
G1 Y109.436335 E785.169952
G0 X85.500000 E785.249952 ;end of channel value 0
G0 X83.750000 E785.329952
G1 Y116.102998 E785.639310
G0 X83.250000
G1 Y109.436335 E785.948668
G0 X82.750000
G1 Y116.102998 E786.258026
G0 X82.250000
G1 Y109.436335 E786.567384
G0 X80.500000 E786.647384 ;end of channel value 0
G0 X78.750000 E786.727384
G1 Y116.102998 E787.036742
G0 X78.250000
G1 Y109.436335 E787.346100
G0 X77.750000
G1 Y116.102998 E787.655458
G0 X77.250000
G1 Y109.436335 E787.964816
G0 X75.500000 E788.044816 ;end of channel value 0
G0 X75.200000 ;end of channel value 0
G1 Y116.102998 E788.354173
G0 X70.800000 E788.564173
G1 Y109.436335 E788.873531
G0 X70.500000 ;end of channel value 0
G0 X70.200000 ;end of channel value 0
G1 Y116.102998 E789.182889
G0 X65.800000 E789.392889
G1 Y109.436335 E789.702247
G0 X65.500000 ;end of channel value 0
G0 X65.200000 ;end of channel value 0
G1 Y116.102998 E790.011605
G0 X60.800000 E790.221605
G1 Y109.436335 E790.530963
G0 X60.500000 ;end of channel value 0
G0 X58.750000 E790.610963
G1 Y116.102998 E790.920321
G0 X58.250000
G1 Y109.436335 E791.229679
G0 X57.750000
G1 Y116.102998 E791.539037
G0 X57.250000
G1 Y109.436335 E791.848395
G0 X55.500000 E791.928395 ;end of channel value 0
G0 X53.750000 E792.008395
G1 Y116.102998 E792.317753
G0 X53.250000
G1 Y109.436335 E792.627111
G0 X52.750000
G1 Y116.102998 E792.936468
G0 X52.250000
G1 Y109.436335 E793.245826
G0 X50.500000 E793.325826 ;end of channel value 0
G0 X48.750000 E793.405826
G1 Y116.102998 E793.715184
G0 X48.250000
G1 Y109.436335 E794.024542
G0 X47.750000
G1 Y116.102998 E794.333900
G0 X47.250000
G1 Y109.436335 E794.643258
G0 X45.500000 E794.723258 ;end of channel value 0
G0 X43.750000 E794.803258
G1 Y116.102998 E795.112616
G0 X43.250000
G1 Y109.436335 E795.421974
G0 X42.750000
G1 Y116.102998 E795.731332
G0 X42.250000
G1 Y109.436335 E796.040690
G0 X40.500000 E796.120690 ;end of channel value 0
G0 X38.750000 E796.200690
G1 Y116.102998 E796.510048
G0 X38.250000
G1 Y109.436335 E796.819405
G0 X37.750000
G1 Y116.102998 E797.128763
G0 X37.250000
G1 Y109.436335 E797.438121
G0 X35.500000 E797.518121 ;end of channel value 0
G0 X33.750000 E797.598121
G1 Y116.102998 E797.907479
G0 X33.250000
G1 Y109.436335 E798.216837
G0 X32.750000
G1 Y116.102998 E798.526195
G0 X32.250000
G1 Y109.436335 E798.835553
G0 X30.500000 E798.915553 ;end of channel value 0
G0 X28.750000 E798.995553
G1 Y116.102998 E799.304911
G0 X28.250000
G1 Y109.436335 E799.614269
G0 X27.750000
G1 Y116.102998 E799.923627
G0 X27.250000
G1 Y109.436335 E800.232985
G0 X25.500000 E800.312985 ;end of channel value 0
G0 X23.750000 E800.392985
G1 Y116.102998 E800.702342
G0 X23.250000
G1 Y109.436335 E801.011700
G0 X22.750000
G1 Y116.102998 E801.321058
G0 X22.250000
G1 Y109.436335 E801.630416
G0 X20.500000 E801.710416 ;end of channel value 0
G0 X18.750000 E801.790416
G1 Y116.102998 E802.099774
G0 X18.250000
G1 Y109.436335 E802.409132
G0 X17.750000
G1 Y116.102998 E802.718490
G0 X17.250000
G1 Y109.436335 E803.027848
G0 X15.500000 E803.107848 ;end of channel value 0
G0 X13.750000 E803.187848
G1 Y116.102998 E803.497206
G0 X13.250000
G1 Y109.436335 E803.806564
G0 X12.750000
G1 Y116.102998 E804.115922
G0 X12.250000
G1 Y109.436335 E804.425280
G0 X10.500000 E804.505280 ;end of channel value 0
G0 Y116.102998 X10.000000 ;end of row
G1 X195.5 E813.113168
G0 X193.750000 E813.193168
G1 Y122.016220 E813.467564
G0 X193.250000
G1 Y116.102998 E813.741959
G0 X192.750000
G1 Y122.016220 E814.016354
G0 X192.250000
G1 Y116.102998 E814.290750
G0 X190.500000 E814.370750 ;end of channel value 0
G0 X190.200000 ;end of channel value 0
G1 Y122.016220 E814.645145
G0 X185.800000 E814.855145
G1 Y116.102998 E815.129541
G0 X185.500000 ;end of channel value 0
G0 X185.200000 ;end of channel value 0
G1 Y122.016220 E815.403936
G0 X180.800000 E815.613936
G1 Y116.102998 E815.888332
G0 X180.500000 ;end of channel value 0
G0 X178.750000 E815.968332
G1 Y122.016220 E816.242727
G0 X178.250000
G1 Y116.102998 E816.517123
G0 X177.750000
G1 Y122.016220 E816.791518
G0 X177.250000
G1 Y116.102998 E817.065913
G0 X175.500000 E817.145913 ;end of channel value 0
G0 X175.200000 ;end of channel value 0
G1 Y122.016220 E817.420309
G0 X170.800000 E817.630309
G1 Y116.102998 E817.904704
G0 X170.500000 ;end of channel value 0
G0 X168.750000 E817.984704
G1 Y122.016220 E818.259100
G0 X168.250000
G1 Y116.102998 E818.533495
G0 X167.750000
G1 Y122.016220 E818.807891
G0 X167.250000
G1 Y116.102998 E819.082286
G0 X165.500000 E819.162286 ;end of channel value 0
G0 X163.750000 E819.242286
G1 Y122.016220 E819.516681
G0 X163.250000
G1 Y116.102998 E819.791077
G0 X162.750000
G1 Y122.016220 E820.065472
G0 X162.250000
G1 Y116.102998 E820.339868
G0 X160.500000 E820.419868 ;end of channel value 0
G0 X160.200000 ;end of channel value 0
G1 Y122.016220 E820.694263
G0 X155.800000 E820.904263
G1 Y116.102998 E821.178659
G0 X155.500000 ;end of channel value 0
G0 X153.750000 E821.258659
G1 Y122.016220 E821.533054
G0 X153.250000
G1 Y116.102998 E821.807450
G0 X152.750000
G1 Y122.016220 E822.081845
G0 X152.250000
G1 Y116.102998 E822.356240
G0 X150.500000 E822.436240 ;end of channel value 0
G0 X148.750000 E822.516240
G1 Y122.016220 E822.790636
G0 X148.250000
G1 Y116.102998 E823.065031
G0 X147.750000
G1 Y122.016220 E823.339427
G0 X147.250000
G1 Y116.102998 E823.613822
G0 X145.500000 E823.693822 ;end of channel value 0
G0 X143.750000 E823.773822
G1 Y122.016220 E824.048218
G0 X143.250000
G1 Y116.102998 E824.322613
G0 X142.750000
G1 Y122.016220 E824.597008
G0 X142.250000
G1 Y116.102998 E824.871404
G0 X140.500000 E824.951404 ;end of channel value 0
G0 X138.750000 E825.031404
G1 Y122.016220 E825.305799
G0 X138.250000
G1 Y116.102998 E825.580195
G0 X137.750000
G1 Y122.016220 E825.854590
G0 X137.250000
G1 Y116.102998 E826.128986
G0 X135.500000 E826.208986 ;end of channel value 0
G0 X133.750000 E826.288986
G1 Y122.016220 E826.563381
G0 X133.250000
G1 Y116.102998 E826.837776
G0 X132.750000
G1 Y122.016220 E827.112172
G0 X132.250000
G1 Y116.102998 E827.386567
G0 X130.500000 E827.466567 ;end of channel value 0
G0 X128.750000 E827.546567
G1 Y122.016220 E827.820963
G0 X128.250000
G1 Y116.102998 E828.095358
G0 X127.750000
G1 Y122.016220 E828.369754
G0 X127.250000
G1 Y116.102998 E828.644149
G0 X125.500000 E828.724149 ;end of channel value 0
G0 X123.750000 E828.804149
G1 Y122.016220 E829.078545
G0 X123.250000
G1 Y116.102998 E829.352940
G0 X122.750000
G1 Y122.016220 E829.627335
G0 X122.250000
G1 Y116.102998 E829.901731
G0 X120.500000 E829.981731 ;end of channel value 0
G0 X118.750000 E830.061731
G1 Y122.016220 E830.336126
G0 X118.250000
G1 Y116.102998 E830.610522
G0 X117.750000
G1 Y122.016220 E830.884917
G0 X117.250000
G1 Y116.102998 E831.159313
G0 X115.500000 E831.239313 ;end of channel value 0
G0 X113.750000 E831.319313
G1 Y122.016220 E831.593708
G0 X113.250000
G1 Y116.102998 E831.868103
G0 X112.750000
G1 Y122.016220 E832.142499
G0 X112.250000
G1 Y116.102998 E832.416894
G0 X110.500000 E832.496894 ;end of channel value 0
G0 X108.750000 E832.576894
G1 Y122.016220 E832.851290
G0 X108.250000
G1 Y116.102998 E833.125685
G0 X107.750000
G1 Y122.016220 E833.400081
G0 X107.250000
G1 Y116.102998 E833.674476
G0 X105.500000 E833.754476 ;end of channel value 0
G0 X103.750000 E833.834476
G1 Y122.016220 E834.108872
G0 X103.250000
G1 Y116.102998 E834.383267
G0 X102.750000
G1 Y122.016220 E834.657662
G0 X102.250000
G1 Y116.102998 E834.932058
G0 X100.500000 E835.012058 ;end of channel value 0
G0 X98.750000 E835.092058
G1 Y122.016220 E835.366453
G0 X98.250000
G1 Y116.102998 E835.640849
G0 X97.750000
G1 Y122.016220 E835.915244
G0 X97.250000
G1 Y116.102998 E836.189640
G0 X95.500000 E836.269640 ;end of channel value 0
G0 X93.750000 E836.349640
G1 Y122.016220 E836.624035
G0 X93.250000
G1 Y116.102998 E836.898430
G0 X92.750000
G1 Y122.016220 E837.172826
G0 X92.250000
G1 Y116.102998 E837.447221
G0 X90.500000 E837.527221 ;end of channel value 0
G0 X88.750000 E837.607221
G1 Y122.016220 E837.881617
G0 X88.250000
G1 Y116.102998 E838.156012
G0 X87.750000
G1 Y122.016220 E838.430408
G0 X87.250000
G1 Y116.102998 E838.704803
G0 X85.500000 E838.784803 ;end of channel value 0
G0 X83.750000 E838.864803
G1 Y122.016220 E839.139199
G0 X83.250000
G1 Y116.102998 E839.413594
G0 X82.750000
G1 Y122.016220 E839.687989
G0 X82.250000
G1 Y116.102998 E839.962385
G0 X80.500000 E840.042385 ;end of channel value 0
G0 X78.750000 E840.122385
G1 Y122.016220 E840.396780
G0 X78.250000
G1 Y116.102998 E840.671176
G0 X77.750000
G1 Y122.016220 E840.945571
G0 X77.250000
G1 Y116.102998 E841.219967
G0 X75.500000 E841.299967 ;end of channel value 0
G0 X73.750000 E841.379967
G1 Y122.016220 E841.654362
G0 X73.250000
G1 Y116.102998 E841.928757
G0 X72.750000
G1 Y122.016220 E842.203153
G0 X72.250000
G1 Y116.102998 E842.477548
G0 X70.500000 E842.557548 ;end of channel value 0
G0 X70.200000 ;end of channel value 0
G1 Y122.016220 E842.831944
G0 X65.800000 E843.041944
G1 Y116.102998 E843.316339
G0 X65.500000 ;end of channel value 0
G0 X65.200000 ;end of channel value 0
G1 Y122.016220 E843.590735
G0 X60.800000 E843.800735
G1 Y116.102998 E844.075130
G0 X60.500000 ;end of channel value 0
G0 X58.750000 E844.155130
G1 Y122.016220 E844.429526
G0 X58.250000
G1 Y116.102998 E844.703921
G0 X57.750000
G1 Y122.016220 E844.978316
G0 X57.250000
G1 Y116.102998 E845.252712
G0 X55.500000 E845.332712 ;end of channel value 0
G0 X53.750000 E845.412712
G1 Y122.016220 E845.687107
G0 X53.250000
G1 Y116.102998 E845.961503
G0 X52.750000
G1 Y122.016220 E846.235898
G0 X52.250000
G1 Y116.102998 E846.510294
G0 X50.500000 E846.590294 ;end of channel value 0
G0 X50.200000 ;end of channel value 0
G1 Y122.016220 E846.864689
G0 X45.800000 E847.074689
G1 Y116.102998 E847.349084
G0 X45.500000 ;end of channel value 0
G0 X43.750000 E847.429084
G1 Y122.016220 E847.703480
G0 X43.250000
G1 Y116.102998 E847.977875
G0 X42.750000
G1 Y122.016220 E848.252271
G0 X42.250000
G1 Y116.102998 E848.526666
G0 X40.500000 E848.606666 ;end of channel value 0
G0 X38.750000 E848.686666
G1 Y122.016220 E848.961062
G0 X38.250000
G1 Y116.102998 E849.235457
G0 X37.750000
G1 Y122.016220 E849.509853
G0 X37.250000
G1 Y116.102998 E849.784248
G0 X35.500000 E849.864248 ;end of channel value 0
G0 X33.750000 E849.944248
G1 Y122.016220 E850.218643
G0 X33.250000
G1 Y116.102998 E850.493039
G0 X32.750000
G1 Y122.016220 E850.767434
G0 X32.250000
G1 Y116.102998 E851.041830
G0 X30.500000 E851.121830 ;end of channel value 0
G0 X28.750000 E851.201830
G1 Y122.016220 E851.476225
G0 X28.250000
G1 Y116.102998 E851.750621
G0 X27.750000
G1 Y122.016220 E852.025016
G0 X27.250000
G1 Y116.102998 E852.299411
G0 X25.500000 E852.379411 ;end of channel value 0
G0 X25.200000 ;end of channel value 0
G1 Y122.016220 E852.653807
G0 X20.800000 E852.863807
G1 Y116.102998 E853.138202
G0 X20.500000 ;end of channel value 0
G0 X20.200000 ;end of channel value 0
G1 Y122.016220 E853.412598
G0 X15.800000 E853.622598
G1 Y116.102998 E853.896993
G0 X15.500000 ;end of channel value 0
G0 X13.750000 E853.976993
G1 Y122.016220 E854.251389
G0 X13.250000
G1 Y116.102998 E854.525784
G0 X12.750000
G1 Y122.016220 E854.800180
G0 X12.250000
G1 Y116.102998 E855.074575
G0 X10.500000 E855.154575 ;end of channel value 0
G0 Y122.016220 X10.000000 ;end of row
G1 X195.5 E863.762464
G0 X193.750000 E863.842464
G1 Y127.763353 E864.109152
G0 X193.250000
G1 Y122.016220 E864.375840
G0 X192.750000
G1 Y127.763353 E864.642529
G0 X192.250000
G1 Y122.016220 E864.909217
G0 X190.500000 E864.989217 ;end of channel value 0
G0 X190.200000 ;end of channel value 0
G1 Y127.763353 E865.255905
G0 X185.800000 E865.465905
G1 Y122.016220 E865.732594
G0 X185.500000 ;end of channel value 0
G0 X185.200000 ;end of channel value 0
G1 Y127.763353 E865.999282
G0 X180.800000 E866.209282
G1 Y122.016220 E866.475970
G0 X180.500000 ;end of channel value 0
G0 X178.750000 E866.555970
G1 Y127.763353 E866.822658
G0 X178.250000
G1 Y122.016220 E867.089347
G0 X177.750000
G1 Y127.763353 E867.356035
G0 X177.250000
G1 Y122.016220 E867.622723
G0 X175.500000 E867.702723 ;end of channel value 0
G0 X173.750000 E867.782723
G1 Y127.763353 E868.049412
G0 X173.250000
G1 Y122.016220 E868.316100
G0 X172.750000
G1 Y127.763353 E868.582788
G0 X172.250000
G1 Y122.016220 E868.849477
G0 X170.500000 E868.929477 ;end of channel value 0
G0 X168.750000 E869.009477
G1 Y127.763353 E869.276165
G0 X168.250000
G1 Y122.016220 E869.542853
G0 X167.750000
G1 Y127.763353 E869.809542
G0 X167.250000
G1 Y122.016220 E870.076230
G0 X165.500000 E870.156230 ;end of channel value 0
G0 X163.750000 E870.236230
G1 Y127.763353 E870.502918
G0 X163.250000
G1 Y122.016220 E870.769607
G0 X162.750000
G1 Y127.763353 E871.036295
G0 X162.250000
G1 Y122.016220 E871.302983
G0 X160.500000 E871.382983 ;end of channel value 0
G0 X158.750000 E871.462983
G1 Y127.763353 E871.729672
G0 X158.250000
G1 Y122.016220 E871.996360
G0 X157.750000
G1 Y127.763353 E872.263048
G0 X157.250000
G1 Y122.016220 E872.529737
G0 X155.500000 E872.609737 ;end of channel value 0
G0 X153.750000 E872.689737
G1 Y127.763353 E872.956425
G0 X153.250000
G1 Y122.016220 E873.223113
G0 X152.750000
G1 Y127.763353 E873.489802
G0 X152.250000
G1 Y122.016220 E873.756490
G0 X150.500000 E873.836490 ;end of channel value 0
G0 X148.750000 E873.916490
G1 Y127.763353 E874.183178
G0 X148.250000
G1 Y122.016220 E874.449867
G0 X147.750000
G1 Y127.763353 E874.716555
G0 X147.250000
G1 Y122.016220 E874.983243
G0 X145.500000 E875.063243 ;end of channel value 0
G0 X143.750000 E875.143243
G1 Y127.763353 E875.409931
G0 X143.250000
G1 Y122.016220 E875.676620
G0 X142.750000
G1 Y127.763353 E875.943308
G0 X142.250000
G1 Y122.016220 E876.209996
G0 X140.500000 E876.289996 ;end of channel value 0
G0 X138.750000 E876.369996
G1 Y127.763353 E876.636685
G0 X138.250000
G1 Y122.016220 E876.903373
G0 X137.750000
G1 Y127.763353 E877.170061
G0 X137.250000
G1 Y122.016220 E877.436750
G0 X135.500000 E877.516750 ;end of channel value 0
G0 X133.750000 E877.596750
G1 Y127.763353 E877.863438
G0 X133.250000
G1 Y122.016220 E878.130126
G0 X132.750000
G1 Y127.763353 E878.396815
G0 X132.250000
G1 Y122.016220 E878.663503
G0 X130.500000 E878.743503 ;end of channel value 0
G0 X128.750000 E878.823503
G1 Y127.763353 E879.090191
G0 X128.250000
G1 Y122.016220 E879.356880
G0 X127.750000
G1 Y127.763353 E879.623568
G0 X127.250000
G1 Y122.016220 E879.890256
G0 X125.500000 E879.970256 ;end of channel value 0
G0 X123.750000 E880.050256
G1 Y127.763353 E880.316945
G0 X123.250000
G1 Y122.016220 E880.583633
G0 X122.750000
G1 Y127.763353 E880.850321
G0 X122.250000
G1 Y122.016220 E881.117010
G0 X120.500000 E881.197010 ;end of channel value 0
G0 X118.750000 E881.277010
G1 Y127.763353 E881.543698
G0 X118.250000
G1 Y122.016220 E881.810386
G0 X117.750000
G1 Y127.763353 E882.077075
G0 X117.250000
G1 Y122.016220 E882.343763
G0 X115.500000 E882.423763 ;end of channel value 0
G0 X113.750000 E882.503763
G1 Y127.763353 E882.770451
G0 X113.250000
G1 Y122.016220 E883.037140
G0 X112.750000
G1 Y127.763353 E883.303828
G0 X112.250000
G1 Y122.016220 E883.570516
G0 X110.500000 E883.650516 ;end of channel value 0
G0 X108.750000 E883.730516
G1 Y127.763353 E883.997205
G0 X108.250000
G1 Y122.016220 E884.263893
G0 X107.750000
G1 Y127.763353 E884.530581
G0 X107.250000
G1 Y122.016220 E884.797269
G0 X105.500000 E884.877269 ;end of channel value 0
G0 X103.750000 E884.957269
G1 Y127.763353 E885.223958
G0 X103.250000
G1 Y122.016220 E885.490646
G0 X102.750000
G1 Y127.763353 E885.757334
G0 X102.250000
G1 Y122.016220 E886.024023
G0 X100.500000 E886.104023 ;end of channel value 0
G0 X98.750000 E886.184023
G1 Y127.763353 E886.450711
G0 X98.250000
G1 Y122.016220 E886.717399
G0 X97.750000
G1 Y127.763353 E886.984088
G0 X97.250000
G1 Y122.016220 E887.250776
G0 X95.500000 E887.330776 ;end of channel value 0
G0 X93.750000 E887.410776
G1 Y127.763353 E887.677464
G0 X93.250000
G1 Y122.016220 E887.944153
G0 X92.750000
G1 Y127.763353 E888.210841
G0 X92.250000
G1 Y122.016220 E888.477529
G0 X90.500000 E888.557529 ;end of channel value 0
G0 X88.750000 E888.637529
G1 Y127.763353 E888.904218
G0 X88.250000
G1 Y122.016220 E889.170906
G0 X87.750000
G1 Y127.763353 E889.437594
G0 X87.250000
G1 Y122.016220 E889.704283
G0 X85.500000 E889.784283 ;end of channel value 0
G0 X83.750000 E889.864283
G1 Y127.763353 E890.130971
G0 X83.250000
G1 Y122.016220 E890.397659
G0 X82.750000
G1 Y127.763353 E890.664348
G0 X82.250000
G1 Y122.016220 E890.931036
G0 X80.500000 E891.011036 ;end of channel value 0
G0 X78.750000 E891.091036
G1 Y127.763353 E891.357724
G0 X78.250000
G1 Y122.016220 E891.624413
G0 X77.750000
G1 Y127.763353 E891.891101
G0 X77.250000
G1 Y122.016220 E892.157789
G0 X75.500000 E892.237789 ;end of channel value 0
G0 X73.750000 E892.317789
G1 Y127.763353 E892.584478
G0 X73.250000
G1 Y122.016220 E892.851166
G0 X72.750000
G1 Y127.763353 E893.117854
G0 X72.250000
G1 Y122.016220 E893.384542
G0 X70.500000 E893.464542 ;end of channel value 0
G0 X68.750000 E893.544542
G1 Y127.763353 E893.811231
G0 X68.250000
G1 Y122.016220 E894.077919
G0 X67.750000
G1 Y127.763353 E894.344607
G0 X67.250000
G1 Y122.016220 E894.611296
G0 X65.500000 E894.691296 ;end of channel value 0
G0 X63.750000 E894.771296
G1 Y127.763353 E895.037984
G0 X63.250000
G1 Y122.016220 E895.304672
G0 X62.750000
G1 Y127.763353 E895.571361
G0 X62.250000
G1 Y122.016220 E895.838049
G0 X60.500000 E895.918049 ;end of channel value 0
G0 X58.750000 E895.998049
G1 Y127.763353 E896.264737
G0 X58.250000
G1 Y122.016220 E896.531426
G0 X57.750000
G1 Y127.763353 E896.798114
G0 X57.250000
G1 Y122.016220 E897.064802
G0 X55.500000 E897.144802 ;end of channel value 0
G0 X53.750000 E897.224802
G1 Y127.763353 E897.491491
G0 X53.250000
G1 Y122.016220 E897.758179
G0 X52.750000
G1 Y127.763353 E898.024867
G0 X52.250000
G1 Y122.016220 E898.291556
G0 X50.500000 E898.371556 ;end of channel value 0
G0 X48.750000 E898.451556
G1 Y127.763353 E898.718244
G0 X48.250000
G1 Y122.016220 E898.984932
G0 X47.750000
G1 Y127.763353 E899.251621
G0 X47.250000
G1 Y122.016220 E899.518309
G0 X45.500000 E899.598309 ;end of channel value 0
G0 X43.750000 E899.678309
G1 Y127.763353 E899.944997
G0 X43.250000
G1 Y122.016220 E900.211686
G0 X42.750000
G1 Y127.763353 E900.478374
G0 X42.250000
G1 Y122.016220 E900.745062
G0 X40.500000 E900.825062 ;end of channel value 0
G0 X40.200000 ;end of channel value 0
G1 Y127.763353 E901.091751
G0 X35.800000 E901.301751
G1 Y122.016220 E901.568439
G0 X35.500000 ;end of channel value 0
G0 X35.200000 ;end of channel value 0
G1 Y127.763353 E901.835127
G0 X30.800000 E902.045127
G1 Y122.016220 E902.311815
G0 X30.500000 ;end of channel value 0
G0 X30.200000 ;end of channel value 0
G1 Y127.763353 E902.578504
G0 X25.800000 E902.788504
G1 Y122.016220 E903.055192
G0 X25.500000 ;end of channel value 0
G0 X23.750000 E903.135192
G1 Y127.763353 E903.401880
G0 X23.250000
G1 Y122.016220 E903.668569
G0 X22.750000
G1 Y127.763353 E903.935257
G0 X22.250000
G1 Y122.016220 E904.201945
G0 X20.500000 E904.281945 ;end of channel value 0
G0 X18.750000 E904.361945
G1 Y127.763353 E904.628634
G0 X18.250000
G1 Y122.016220 E904.895322
G0 X17.750000
G1 Y127.763353 E905.162010
G0 X17.250000
G1 Y122.016220 E905.428699
G0 X15.500000 E905.508699 ;end of channel value 0
G0 X13.750000 E905.588699
G1 Y127.763353 E905.855387
G0 X13.250000
G1 Y122.016220 E906.122075
G0 X12.750000
G1 Y127.763353 E906.388764
G0 X12.250000
G1 Y122.016220 E906.655452
G0 X10.500000 E906.735452 ;end of channel value 0
G0 Y127.763353 X10.000000 ;end of row
G1 X195.5 E915.343341
G0 X193.750000 E915.423341
G1 Y133.676588 E915.697737
G0 X193.250000
G1 Y127.763353 E915.972133
G0 X192.750000
G1 Y133.676588 E916.246529
G0 X192.250000
G1 Y127.763353 E916.520925
G0 X190.500000 E916.600925 ;end of channel value 0
G0 X190.200000 ;end of channel value 0
G1 Y133.676588 E916.875321
G0 X185.800000 E917.085321
G1 Y127.763353 E917.359717
G0 X185.500000 ;end of channel value 0
G0 X185.200000 ;end of channel value 0
G1 Y133.676588 E917.634113
G0 X180.800000 E917.844113
G1 Y127.763353 E918.118509
G0 X180.500000 ;end of channel value 0
G0 X178.750000 E918.198509
G1 Y133.676588 E918.472905
G0 X178.250000
G1 Y127.763353 E918.747301
G0 X177.750000
G1 Y133.676588 E919.021697
G0 X177.250000
G1 Y127.763353 E919.296093
G0 X175.500000 E919.376093 ;end of channel value 0
G0 X173.750000 E919.456093
G1 Y133.676588 E919.730490
G0 X173.250000
G1 Y127.763353 E920.004886
G0 X172.750000
G1 Y133.676588 E920.279282
G0 X172.250000
G1 Y127.763353 E920.553678
G0 X170.500000 E920.633678 ;end of channel value 0
G0 X170.200000 ;end of channel value 0
G1 Y133.676588 E920.908074
G0 X165.800000 E921.118074
G1 Y127.763353 E921.392470
G0 X165.500000 ;end of channel value 0
G0 X165.200000 ;end of channel value 0
G1 Y133.676588 E921.666866
G0 X160.800000 E921.876866
G1 Y127.763353 E922.151262
G0 X160.500000 ;end of channel value 0
G0 X158.750000 E922.231262
G1 Y133.676588 E922.505658
G0 X158.250000
G1 Y127.763353 E922.780054
G0 X157.750000
G1 Y133.676588 E923.054450
G0 X157.250000
G1 Y127.763353 E923.328846
G0 X155.500000 E923.408846 ;end of channel value 0
G0 X153.750000 E923.488846
G1 Y133.676588 E923.763242
G0 X153.250000
G1 Y127.763353 E924.037638
G0 X152.750000
G1 Y133.676588 E924.312035
G0 X152.250000
G1 Y127.763353 E924.586431
G0 X150.500000 E924.666431 ;end of channel value 0
G0 X148.750000 E924.746431
G1 Y133.676588 E925.020827
G0 X148.250000
G1 Y127.763353 E925.295223
G0 X147.750000
G1 Y133.676588 E925.569619
G0 X147.250000
G1 Y127.763353 E925.844015
G0 X145.500000 E925.924015 ;end of channel value 0
G0 X143.750000 E926.004015
G1 Y133.676588 E926.278411
G0 X143.250000
G1 Y127.763353 E926.552807
G0 X142.750000
G1 Y133.676588 E926.827203
G0 X142.250000
G1 Y127.763353 E927.101599
G0 X140.500000 E927.181599 ;end of channel value 0
G0 X138.750000 E927.261599
G1 Y133.676588 E927.535995
G0 X138.250000
G1 Y127.763353 E927.810391
G0 X137.750000
G1 Y133.676588 E928.084787
G0 X137.250000
G1 Y127.763353 E928.359183
G0 X135.500000 E928.439183 ;end of channel value 0
G0 X133.750000 E928.519183
G1 Y133.676588 E928.793579
G0 X133.250000
G1 Y127.763353 E929.067976
G0 X132.750000
G1 Y133.676588 E929.342372
G0 X132.250000
G1 Y127.763353 E929.616768
G0 X130.500000 E929.696768 ;end of channel value 0
G0 X128.750000 E929.776768
G1 Y133.676588 E930.051164
G0 X128.250000
G1 Y127.763353 E930.325560
G0 X127.750000
G1 Y133.676588 E930.599956
G0 X127.250000
G1 Y127.763353 E930.874352
G0 X125.500000 E930.954352 ;end of channel value 0
G0 X123.750000 E931.034352
G1 Y133.676588 E931.308748
G0 X123.250000
G1 Y127.763353 E931.583144
G0 X122.750000
G1 Y133.676588 E931.857540
G0 X122.250000
G1 Y127.763353 E932.131936
G0 X120.500000 E932.211936 ;end of channel value 0
G0 X118.750000 E932.291936
G1 Y133.676588 E932.566332
G0 X118.250000
G1 Y127.763353 E932.840728
G0 X117.750000
G1 Y133.676588 E933.115124
G0 X117.250000
G1 Y127.763353 E933.389521
G0 X115.500000 E933.469521 ;end of channel value 0
G0 X113.750000 E933.549521
G1 Y133.676588 E933.823917
G0 X113.250000
G1 Y127.763353 E934.098313
G0 X112.750000
G1 Y133.676588 E934.372709
G0 X112.250000
G1 Y127.763353 E934.647105
G0 X110.500000 E934.727105 ;end of channel value 0
G0 X108.750000 E934.807105
G1 Y133.676588 E935.081501
G0 X108.250000
G1 Y127.763353 E935.355897
G0 X107.750000
G1 Y133.676588 E935.630293
G0 X107.250000
G1 Y127.763353 E935.904689
G0 X105.500000 E935.984689 ;end of channel value 0
G0 X103.750000 E936.064689
G1 Y133.676588 E936.339085
G0 X103.250000
G1 Y127.763353 E936.613481
G0 X102.750000
G1 Y133.676588 E936.887877
G0 X102.250000
G1 Y127.763353 E937.162273
G0 X100.500000 E937.242273 ;end of channel value 0
G0 X98.750000 E937.322273
G1 Y133.676588 E937.596669
G0 X98.250000
G1 Y127.763353 E937.871066
G0 X97.750000
G1 Y133.676588 E938.145462
G0 X97.250000
G1 Y127.763353 E938.419858
G0 X95.500000 E938.499858 ;end of channel value 0
G0 X93.750000 E938.579858
G1 Y133.676588 E938.854254
G0 X93.250000
G1 Y127.763353 E939.128650
G0 X92.750000
G1 Y133.676588 E939.403046
G0 X92.250000
G1 Y127.763353 E939.677442
G0 X90.500000 E939.757442 ;end of channel value 0
G0 X88.750000 E939.837442
G1 Y133.676588 E940.111838
G0 X88.250000
G1 Y127.763353 E940.386234
G0 X87.750000
G1 Y133.676588 E940.660630
G0 X87.250000
G1 Y127.763353 E940.935026
G0 X85.500000 E941.015026 ;end of channel value 0
G0 X83.750000 E941.095026
G1 Y133.676588 E941.369422
G0 X83.250000
G1 Y127.763353 E941.643818
G0 X82.750000
G1 Y133.676588 E941.918214
G0 X82.250000
G1 Y127.763353 E942.192610
G0 X80.500000 E942.272610 ;end of channel value 0
G0 X78.750000 E942.352610
G1 Y133.676588 E942.627007
G0 X78.250000
G1 Y127.763353 E942.901403
G0 X77.750000
G1 Y133.676588 E943.175799
G0 X77.250000
G1 Y127.763353 E943.450195
G0 X75.500000 E943.530195 ;end of channel value 0
G0 X73.750000 E943.610195
G1 Y133.676588 E943.884591
G0 X73.250000
G1 Y127.763353 E944.158987
G0 X72.750000
G1 Y133.676588 E944.433383
G0 X72.250000
G1 Y127.763353 E944.707779
G0 X70.500000 E944.787779 ;end of channel value 0
G0 X70.200000 ;end of channel value 0
G1 Y133.676588 E945.062175
G0 X65.800000 E945.272175
G1 Y127.763353 E945.546571
G0 X65.500000 ;end of channel value 0
G0 X65.200000 ;end of channel value 0
G1 Y133.676588 E945.820967
G0 X60.800000 E946.030967
G1 Y127.763353 E946.305363
G0 X60.500000 ;end of channel value 0
G0 X58.750000 E946.385363
G1 Y133.676588 E946.659759
G0 X58.250000
G1 Y127.763353 E946.934155
G0 X57.750000
G1 Y133.676588 E947.208552
G0 X57.250000
G1 Y127.763353 E947.482948
G0 X55.500000 E947.562948 ;end of channel value 0
G0 X53.750000 E947.642948
G1 Y133.676588 E947.917344
G0 X53.250000
G1 Y127.763353 E948.191740
G0 X52.750000
G1 Y133.676588 E948.466136
G0 X52.250000
G1 Y127.763353 E948.740532
G0 X50.500000 E948.820532 ;end of channel value 0
G0 X50.200000 ;end of channel value 0
G1 Y133.676588 E949.094928
G0 X45.800000 E949.304928
G1 Y127.763353 E949.579324
G0 X45.500000 ;end of channel value 0
G0 X43.750000 E949.659324
G1 Y133.676588 E949.933720
G0 X43.250000
G1 Y127.763353 E950.208116
G0 X42.750000
G1 Y133.676588 E950.482512
G0 X42.250000
G1 Y127.763353 E950.756908
G0 X40.500000 E950.836908 ;end of channel value 0
G0 X38.750000 E950.916908
G1 Y133.676588 E951.191304
G0 X38.250000
G1 Y127.763353 E951.465700
G0 X37.750000
G1 Y133.676588 E951.740097
G0 X37.250000
G1 Y127.763353 E952.014493
G0 X35.500000 E952.094493 ;end of channel value 0
G0 X33.750000 E952.174493
G1 Y133.676588 E952.448889
G0 X33.250000
G1 Y127.763353 E952.723285
G0 X32.750000
G1 Y133.676588 E952.997681
G0 X32.250000
G1 Y127.763353 E953.272077
G0 X30.500000 E953.352077 ;end of channel value 0
G0 X28.750000 E953.432077
G1 Y133.676588 E953.706473
G0 X28.250000
G1 Y127.763353 E953.980869
G0 X27.750000
G1 Y133.676588 E954.255265
G0 X27.250000
G1 Y127.763353 E954.529661
G0 X25.500000 E954.609661 ;end of channel value 0
G0 X25.200000 ;end of channel value 0
G1 Y133.676588 E954.884057
G0 X20.800000 E955.094057
G1 Y127.763353 E955.368453
G0 X20.500000 ;end of channel value 0
G0 X20.200000 ;end of channel value 0
G1 Y133.676588 E955.642849
G0 X15.800000 E955.852849
G1 Y127.763353 E956.127245
G0 X15.500000 ;end of channel value 0
G0 X13.750000 E956.207245
G1 Y133.676588 E956.481641
G0 X13.250000
G1 Y127.763353 E956.756038
G0 X12.750000
G1 Y133.676588 E957.030434
G0 X12.250000
G1 Y127.763353 E957.304830
G0 X10.500000 E957.384830 ;end of channel value 0
G0 Y133.676588 X10.000000 ;end of row
G1 X195.5 E965.992718
G0 X195.200000 ;end of channel value 0
G1 Y141.883186 E966.373535
G0 X190.800000 E966.583535
G1 Y133.676588 E966.964352
G0 X190.500000 ;end of channel value 0
G0 X188.750000 E967.044352
G1 Y141.883186 E967.425168
G0 X188.250000
G1 Y133.676588 E967.805985
G0 X187.750000
G1 Y141.883186 E968.186801
G0 X187.250000
G1 Y133.676588 E968.567618
G0 X185.500000 E968.647618 ;end of channel value 0
G0 X183.750000 E968.727618
G1 Y141.883186 E969.108434
G0 X183.250000
G1 Y133.676588 E969.489251
G0 X182.750000
G1 Y141.883186 E969.870068
G0 X182.250000
G1 Y133.676588 E970.250884
G0 X180.500000 E970.330884 ;end of channel value 0
G0 X180.200000 ;end of channel value 0
G1 Y141.883186 E970.711701
G0 X175.800000 E970.921701
G1 Y133.676588 E971.302517
G0 X175.500000 ;end of channel value 0
G0 X173.750000 E971.382517
G1 Y141.883186 E971.763334
G0 X173.250000
G1 Y133.676588 E972.144151
G0 X172.750000
G1 Y141.883186 E972.524967
G0 X172.250000
G1 Y133.676588 E972.905784
G0 X170.500000 E972.985784 ;end of channel value 0
G0 X170.200000 ;end of channel value 0
G1 Y141.883186 E973.366600
G0 X165.800000 E973.576600
G1 Y133.676588 E973.957417
G0 X165.500000 ;end of channel value 0
G0 X165.200000 ;end of channel value 0
G1 Y141.883186 E974.338234
G0 X160.800000 E974.548234
G1 Y133.676588 E974.929050
G0 X160.500000 ;end of channel value 0
G0 X158.750000 E975.009050
G1 Y141.883186 E975.389867
G0 X158.250000
G1 Y133.676588 E975.770683
G0 X157.750000
G1 Y141.883186 E976.151500
G0 X157.250000
G1 Y133.676588 E976.532317
G0 X155.500000 E976.612317 ;end of channel value 0
G0 X153.750000 E976.692317
G1 Y141.883186 E977.073133
G0 X153.250000
G1 Y133.676588 E977.453950
G0 X152.750000
G1 Y141.883186 E977.834766
G0 X152.250000
G1 Y133.676588 E978.215583
G0 X150.500000 E978.295583 ;end of channel value 0
G0 X148.750000 E978.375583
G1 Y141.883186 E978.756400
G0 X148.250000
G1 Y133.676588 E979.137216
G0 X147.750000
G1 Y141.883186 E979.518033
G0 X147.250000
G1 Y133.676588 E979.898849
G0 X145.500000 E979.978849 ;end of channel value 0
G0 X143.750000 E980.058849
G1 Y141.883186 E980.439666
G0 X143.250000
G1 Y133.676588 E980.820483
G0 X142.750000
G1 Y141.883186 E981.201299
G0 X142.250000
G1 Y133.676588 E981.582116
G0 X140.500000 E981.662116 ;end of channel value 0
G0 X138.750000 E981.742116
G1 Y141.883186 E982.122932
G0 X138.250000
G1 Y133.676588 E982.503749
G0 X137.750000
G1 Y141.883186 E982.884566
G0 X137.250000
G1 Y133.676588 E983.265382
G0 X135.500000 E983.345382 ;end of channel value 0
G0 X133.750000 E983.425382
G1 Y141.883186 E983.806199
G0 X133.250000
G1 Y133.676588 E984.187015
G0 X132.750000
G1 Y141.883186 E984.567832
G0 X132.250000
G1 Y133.676588 E984.948649
G0 X130.500000 E985.028649 ;end of channel value 0
G0 X128.750000 E985.108649
G1 Y141.883186 E985.489465
G0 X128.250000
G1 Y133.676588 E985.870282
G0 X127.750000
G1 Y141.883186 E986.251098
G0 X127.250000
G1 Y133.676588 E986.631915
G0 X125.500000 E986.711915 ;end of channel value 0
G0 X123.750000 E986.791915
G1 Y141.883186 E987.172731
G0 X123.250000
G1 Y133.676588 E987.553548
G0 X122.750000
G1 Y141.883186 E987.934365
G0 X122.250000
G1 Y133.676588 E988.315181
G0 X120.500000 E988.395181 ;end of channel value 0
G0 X118.750000 E988.475181
G1 Y141.883186 E988.855998
G0 X118.250000
G1 Y133.676588 E989.236814
G0 X117.750000
G1 Y141.883186 E989.617631
G0 X117.250000
G1 Y133.676588 E989.998448
G0 X115.500000 E990.078448 ;end of channel value 0
G0 X113.750000 E990.158448
G1 Y141.883186 E990.539264
G0 X113.250000
G1 Y133.676588 E990.920081
G0 X112.750000
G1 Y141.883186 E991.300897
G0 X112.250000
G1 Y133.676588 E991.681714
G0 X110.500000 E991.761714 ;end of channel value 0
G0 X108.750000 E991.841714
G1 Y141.883186 E992.222531
G0 X108.250000
G1 Y133.676588 E992.603347
G0 X107.750000
G1 Y141.883186 E992.984164
G0 X107.250000
G1 Y133.676588 E993.364980
G0 X105.500000 E993.444980 ;end of channel value 0
G0 X103.750000 E993.524980
G1 Y141.883186 E993.905797
G0 X103.250000
G1 Y133.676588 E994.286614
G0 X102.750000
G1 Y141.883186 E994.667430
G0 X102.250000
G1 Y133.676588 E995.048247
G0 X100.500000 E995.128247 ;end of channel value 0
G0 X98.750000 E995.208247
G1 Y141.883186 E995.589063
G0 X98.250000
G1 Y133.676588 E995.969880
G0 X97.750000
