; generated by PrusaSlicer 2.8.0 on 2024-09-12 at 19:04:05 UTC

; 

; external perimeters extrusion width = 0.42mm
; perimeters extrusion width = 0.44mm
; infill extrusion width = 0.44mm
; solid infill extrusion width = 0.44mm
; top infill extrusion width = 0.40mm
; first layer extrusion width = 0.42mm

M201 X500 Y500 Z100 E5000 ; sets maximum accelerations, mm/sec^2
M203 X500 Y500 Z10 E60 ; sets maximum feedrates, mm / sec
M204 S500 T1000 ; sets acceleration (S) and retract acceleration (R), mm/sec^2
M205 X8.00 Y8.00 Z0.40 E5.00 ; sets the jerk limits, mm/sec
M205 S0 T0 ; sets the minimum extruding and travel feed rate, mm/sec

; printing object 3DBenchy.stl id:0 copy 0
; stop printing object 3DBenchy.stl id:0 copy 0

;TYPE:Custom
G90 ; use absolute coordinates
M83 ; extruder relative mode
M104 S150 ; set temporary nozzle temp to prevent oozing during homing
M140 S60 ; set final bed temp
G4 S30 ; allow partial nozzle warmup
G28 ; home all axis
G1 Z50 F240
G1 X2.0 Y10 F3000
M104 S215 ; set final nozzle temp
M190 S60 ; wait for bed temp to stabilize
M109 S215 ; wait for nozzle temp to stabilize
G1 Z0.28 F240
G92 E0
G1 X2.0 Y140 E10 F1500 ; prime the nozzle
G1 X2.3 Y140 F5000
G92 E0
G1 X2.3 Y10 E10 F1200 ; prime the nozzle
G92 E0
G21 ; set units to millimeters
G90 ; use absolute coordinates
M83 ; use relative distances for extrusion
; Filament gcode
M107
;LAYER_CHANGE
;Z:0.2
;HEIGHT:0.2
G1 E-5 F3600
G1 Z.2 F9000
G1 X88.314 Y106.069
G1 Z.2
G1 E5 F2400
M204 S500
;TYPE:Skirt/Brim
;WIDTH:0.42
G1 F1200
G1 X89.421 Y105.507 E.03893
G1 X90.117 Y105.303 E.02274
G1 X90.852 Y105.193 E.0233
G1 X114.43 Y103.724 E.74071
G1 X115.793 Y103.693 E.04275
G1 X118.33 Y103.899 E.07981
G1 X120.693 Y104.412 E.07582
G1 X123.026 Y105.248 E.0777
G1 X125.231 Y106.386 E.0778
G1 X127.214 Y107.764 E.07571
G1 X128.956 Y109.337 E.07359
G1 X130.563 Y111.216 E.07752
G1 X131.901 Y113.29 E.07739
G1 X132.292 Y114.35 E.03542
G1 X132.431 Y115.517 E.03685
G1 X132.299 Y116.622 E.03489
G1 X131.839 Y117.828 E.04047
G1 X130.693 Y119.608 E.06638
G1 X129.327 Y121.271 E.06748
G1 X127.852 Y122.705 E.0645
G1 X126.244 Y123.958 E.06392
G1 X125.03 Y124.733 E.04516
G1 X123.753 Y125.417 E.04542
G1 X122.427 Y126 E.04542
G1 X121.1 Y126.467 E.04411
G1 X119.696 Y126.843 E.04557
G1 X118.28 Y127.108 E.04517
G1 X116.867 Y127.262 E.04457
G1 X115.424 Y127.309 E.04527
G1 X90.496 Y125.766 E.7831
G1 X89.429 Y125.496 E.03451
G1 X88.414 Y124.996 E.03548
G1 X87.706 Y124.457 E.0279
G1 X86.974 Y123.637 E.03446
G1 X86.566 Y122.969 E.02454
G1 X86.279 Y122.299 E.02285
G1 X85.986 Y120.914 E.04439
G1 X85.986 Y110.086 E.3395
G1 X86.208 Y108.916 E.03734
G1 X86.748 Y107.704 E.0416
G1 X87.44 Y106.802 E.03565
G1 X88.268 Y106.108 E.03387
G1 X88.268 Y106.108 F9000
G1 X88.508 Y106.394
G1 F1200
G1 X88.519 Y106.385 E.00045
G1 X89.555 Y105.859 E.03643
G1 X90.887 Y105.569 E.04274
G1 X115.791 Y104.07 E.78226
G1 X118.276 Y104.272 E.07817
G1 X120.592 Y104.776 E.07432
G1 X122.874 Y105.593 E.076
G1 X125.038 Y106.711 E.07637
G1 X126.98 Y108.059 E.07412
G1 X128.684 Y109.598 E.07199
G1 X130.262 Y111.443 E.07612
G1 X131.564 Y113.459 E.07525
G1 X131.945 Y114.521 E.03538
G1 X132.05 Y115.688 E.03674
G1 X131.884 Y116.721 E.0328
G1 X131.466 Y117.723 E.03404
G1 X130.318 Y119.482 E.06586
G1 X129.018 Y121.051 E.06389
G1 X127.435 Y122.567 E.06872
G1 X125.778 Y123.819 E.06512
G1 X124.56 Y124.568 E.04483
G1 X123.286 Y125.222 E.0449
G1 X121.964 Y125.774 E.04492
G1 X120.668 Y126.203 E.0428
G1 X117.998 Y126.768 E.08557
G1 X116.628 Y126.9 E.04315
G1 X115.246 Y126.929 E.04334
G1 X90.555 Y125.394 E.77566
G1 X89.562 Y125.143 E.03211
G1 X88.62 Y124.68 E.03291
G1 X87.801 Y124.028 E.03282
G1 X87.139 Y123.209 E.03302
G1 X86.571 Y121.98 E.04245
G1 X86.349 Y120.683 E.04126
G1 X86.362 Y110.121 E.33116
G1 X86.57 Y109.022 E.03507
G1 X87.069 Y107.903 E.03842
G1 X87.709 Y107.065 E.03306
G1 X88.462 Y106.433 E.03082
G1 E-3.5 F3600
;WIPE_START
G1 F7200
G1 X88.508 Y106.394 E-.02865
G1 X88.519 Y106.385 E-.00675
G1 X89.555 Y105.859 E-.55189
G1 X90.887 Y105.569 E-.64752
G1 X91.444 Y105.535 E-.26519
;WIPE_END
; printing object 3DBenchy.stl id:0 copy 0
G1 X113.887 Y114.2 F9000
G1 E5 F2400
;TYPE:External perimeter
;WIDTH:0.419999
G1 F1200
G1 X113.889 Y114.179 E.00066
G1 X113.973 Y114.011 E.00589
G1 X114.213 Y113.793 E.01017
G1 X114.63 Y113.677 E.01357
G1 X115.049 Y113.814 E.01382
G1 X115.373 Y114.206 E.01595
G1 X115.57 Y114.676 E.01598
G1 X115.675 Y114.804 E.00519
G1 X115.834 Y114.595 E.00823
G1 X116.036 Y114.121 E.01616
G1 X116.41 Y113.759 E.01632
G1 X116.815 Y113.683 E.01292
G1 X117.115 Y113.81 E.01021
;WIDTH:0.437738
G1 X117.395 Y114.147 E.01438
;WIDTH:0.464745
G1 X117.469 Y114.448 E.01087
G1 X117.355 Y114.797 E.01288
;WIDTH:0.419999
G1 X116.684 Y115.934 E.04139
G1 X116.599 Y116.202 E.00882
G1 X116.687 Y116.474 E.00896
G1 X117.314 Y117.517 E.03816
G1 X117.469 Y117.878 E.01232
G1 X117.503 Y118.155 E.00875
G1 X117.459 Y118.421 E.00845
G1 X117.326 Y118.65 E.0083
G1 X117.065 Y118.836 E.01005
G1 X116.666 Y118.906 E.0127
G1 X116.417 Y118.843 E.00805
G1 X116.224 Y118.715 E.00726
G1 X116.075 Y118.533 E.00737
G1 X115.879 Y118.142 E.01371
G1 X115.79 Y117.88 E.00868
G1 X115.614 Y117.7 E.00789
G1 X115.453 Y117.862 E.00716
G1 X115.34 Y118.172 E.01035
G1 X115.079 Y118.607 E.01591
G1 X114.678 Y118.872 E.01507
G1 X114.381 Y118.862 E.00932
G1 X114.085 Y118.702 E.01055
;WIDTH:0.421146
G1 X113.879 Y118.434 E.01063
;WIDTH:0.427024
G1 X113.858 Y118.147 E.00919
G1 X113.973 Y117.636 E.01673
;WIDTH:0.42605
G1 X114.219 Y117.184 E.01639
;WIDTH:0.419999
G1 X114.482 Y116.714 E.01689
G1 X114.778 Y116.265 E.01686
G1 X114.019 Y114.957 E.04742
G1 X113.864 Y114.472 E.01596
G1 X113.882 Y114.26 E.00667
G1 E-3.5 F3600
;WIPE_START
G1 F7200
G1 X113.887 Y114.2 E-.0286
G1 X113.889 Y114.179 E-.01002
G1 X113.973 Y114.011 E-.08922
G1 X114.213 Y113.793 E-.15401
G1 X114.63 Y113.677 E-.2056
G1 X115.049 Y113.814 E-.20939
G1 X115.373 Y114.206 E-.24157
G1 X115.57 Y114.676 E-.24207
G1 X115.675 Y114.804 E-.07864
G1 X115.834 Y114.595 E-.12474
G1 X115.93 Y114.37 E-.11614
;WIPE_END
G1 X112.847 Y116.708 F9000
G1 E5 F2400
G1 F1200
G1 X113.166 Y116.921 E.01203
G1 X113.427 Y117.305 E.01456
;WIDTH:0.437596
G1 X113.531 Y117.75 E.015
G1 X113.452 Y118.304 E.01836
;WIDTH:0.423934
G1 X113.193 Y118.766 E.01678
;WIDTH:0.419999
G1 X112.831 Y119.042 E.01427
G1 X112.511 Y119.151 E.0106
G1 X112.264 Y119.172 E.00777
G1 X111.81 Y119.089 E.01447
G1 X111.412 Y118.846 E.01462
G1 X111.134 Y118.473 E.01459
G1 X111.025 Y118.016 E.01473
G1 X111.148 Y117.481 E.01721
;WIDTH:0.391001
G1 X111.371 Y117.075 E.01341
;WIDTH:0.419999
G1 X111.759 Y116.703 E.01685
G1 X112.287 Y116.568 E.01709
G1 X112.779 Y116.662 E.01571
G1 X112.797 Y116.675 E.0007
G1 X112.797 Y116.675 F9000
G1 X111.313 Y116.35
G1 F1200
G1 X111.084 Y116.878 E.01805
;WIDTH:0.391001
G1 X110.847 Y117.362 E.0156
;WIDTH:0.419999
G1 X110.571 Y117.836 E.0172
G1 X110.456 Y117.996 E.00618
G1 X110.002 Y118.358 E.01821
G1 X109.38 Y118.581 E.02072
G1 X108.882 Y118.666 E.01584
G1 X108.357 Y118.694 E.01648
G1 X107.631 Y118.687 E.02276
G1 X107.035 Y118.727 E.01873
G1 X106.628 Y118.599 E.01338
G1 X106.389 Y118.261 E.01298
G1 X106.303 Y117.757 E.01603
G1 X106.319 Y117.164 E.0186
G1 X106.324 Y113.551 E.11328
G1 X106.29 Y112.886 E.02088
G1 X106.447 Y112.517 E.01257
G1 X106.578 Y112.417 E.00517
G1 X106.934 Y112.255 E.01226
G1 X107.238 Y112.224 E.00958
G1 X108.835 Y112.26 E.05009
G1 X109.427 Y112.346 E.01876
G1 X109.914 Y112.498 E.016
G1 X110.296 Y112.716 E.01379
G1 X110.609 Y112.99 E.01304
G1 X110.913 Y113.385 E.01563
G1 X111.148 Y113.838 E.016
G1 X111.338 Y114.47 E.02069
G1 X111.413 Y115.058 E.01859
G1 X111.413 Y115.827 E.02411
G1 X111.327 Y116.292 E.01483
G1 E-3.5 F3600
;WIPE_START
G1 F7200
G1 X111.313 Y116.35 E-.02834
G1 X111.084 Y116.878 E-.27337
G1 X110.847 Y117.362 E-.25598
G1 X110.571 Y117.836 E-.26054
G1 X110.456 Y117.996 E-.09359
G1 X110.002 Y118.358 E-.27581
G1 X109.383 Y118.58 E-.31237
;WIPE_END
G1 X117.908 Y114.55 F9000
G1 E5 F2400
;WIDTH:0.457207
G1 F1200
G1 X117.899 Y114.514 E.00128
;WIDTH:0.461803
G1 X117.89 Y114.332 E.00635
G1 X117.998 Y114.012 E.01176
;WIDTH:0.419999
G1 X118.228 Y113.771 E.01045
G1 X118.504 Y113.682 E.00909
G1 X118.852 Y113.71 E.01095
G1 X119.261 Y113.931 E.01458
G1 X119.449 Y114.224 E.01092
G1 X119.802 Y115.388 E.03814
G1 X119.838 Y115.606 E.00693
G1 X120.037 Y116.138 E.01781
G1 X120.098 Y116.117 E.00202
G1 X120.418 Y114.874 E.04024
G1 X120.689 Y114.18 E.02336
G1 X120.932 Y113.87 E.01235
G1 X121.268 Y113.688 E.01198
G1 X121.54 Y113.707 E.00855
G1 X121.726 Y113.798 E.00649
;WIDTH:0.427314
G1 X122.04 Y114.162 E.01537
;WIDTH:0.431844
G1 X122.094 Y114.414 E.00833
;WIDTH:0.432723
G1 X122.055 Y114.906 E.016
G1 X121.85 Y115.366 E.01632
;WIDTH:0.419999
G1 X120.614 Y118.86 E.1162
G1 X120.236 Y119.834 E.03276
G1 X119.975 Y120.409 E.0198
G1 X119.672 Y120.861 E.01706
G1 X119.306 Y121.151 E.01464
G1 X118.836 Y121.349 E.01599
G1 X118.305 Y121.428 E.01683
G1 X117.915 Y121.325 E.01265
G1 X117.662 Y121.097 E.01068
G1 X117.513 Y120.761 E.01152
G1 X117.485 Y120.446 E.00992
G1 X117.595 Y120.141 E.01017
G1 X117.93 Y119.912 E.01272
G1 X118.427 Y119.761 E.01629
G1 X118.664 Y119.573 E.00949
G1 X118.904 Y119.057 E.01784
G1 X119.236 Y118.228 E.028
G1 X119.123 Y117.862 E.01201
G1 X118.889 Y117.311 E.01877
G1 X118.334 Y115.812 E.05012
G1 X118.038 Y115.091 E.02444
;WIDTH:0.457207
G1 X117.922 Y114.608 E.01711
G1 E-3.5 F3600
;WIPE_START
G1 F7200
G1 X117.908 Y114.55 E-.02834
G1 X117.899 Y114.514 E-.01763
G1 X117.89 Y114.332 E-.08656
G1 X117.998 Y114.012 E-.16042
G1 X118.228 Y113.771 E-.15824
G1 X118.504 Y113.682 E-.13775
G1 X118.852 Y113.71 E-.16583
G1 X119.261 Y113.931 E-.22082
G1 X119.449 Y114.224 E-.16536
G1 X119.669 Y114.947 E-.35905
;WIPE_END
G1 X122.485 Y114.745 F9000
G1 E5 F2400
;WIDTH:0.44606
G1 F1200
G1 X122.49 Y114.184 E.01881
;WIDTH:0.427314
G1 X122.587 Y114 E.00665
;WIDTH:0.419999
G1 X122.755 Y113.842 E.00723
G1 X123.032 Y113.718 E.00952
G1 X123.525 Y113.671 E.01553
G1 X125.535 Y113.675 E.06302
G1 X125.892 Y113.775 E.01162
G1 X126.152 Y114.031 E.01144
G1 X126.268 Y114.52 E.01576
G1 X126.228 Y114.823 E.00958
G1 X126.131 Y115.075 E.00847
G1 X125.858 Y115.509 E.01608
G1 X124.944 Y116.8 E.0496
G1 X124.743 Y117.028 E.00953
G1 X124.568 Y117.302 E.01019
G1 X125.06 Y117.312 E.01543
G1 X125.259 Y117.276 E.00634
G1 X125.737 Y117.342 E.01513
G1 X125.983 Y117.458 E.00853
G1 X126.23 Y117.735 E.01164
G1 X126.278 Y118.049 E.00996
G1 X126.192 Y118.266 E.00732
;WIDTH:0.389323
G1 X126.105 Y118.483 E.00673
;WIDTH:0.381729
G1 X125.881 Y118.687 E.00854
;WIDTH:0.419999
G1 X125.387 Y118.842 E.01623
G1 X124.733 Y118.887 E.02055
G1 X123.847 Y118.884 E.02778
G1 X123.164 Y118.912 E.02143
G1 X122.755 Y118.798 E.01331
G1 X122.474 Y118.453 E.01395
G1 X122.392 Y118.128 E.01051
G1 X122.4 Y117.86 E.00841
G1 X122.476 Y117.591 E.00876
G1 X122.803 Y117.037 E.02017
G1 X123.579 Y115.998 E.04066
G1 X124.08 Y115.424 E.02389
G1 X124.159 Y115.223 E.00677
G1 X123.947 Y115.182 E.00677
G1 X123.507 Y115.244 E.01393
G1 X123.035 Y115.216 E.01483
G1 X122.797 Y115.121 E.00803
;WIDTH:0.432723
G1 X122.539 Y114.88 E.01144
;WIDTH:0.44606
G1 X122.506 Y114.801 E.00287
G1 E-3.5 F3600
;WIPE_START
G1 F7200
G1 X122.485 Y114.745 E-.02841
G1 X122.49 Y114.184 E-.26649
G1 X122.587 Y114 E-.0988
G1 X122.755 Y113.842 E-.10955
G1 X123.032 Y113.718 E-.14416
G1 X123.525 Y113.671 E-.23524
G1 X124.825 Y113.674 E-.61735
;WIPE_END
G1 X105.513 Y116.617 F9000
G1 E5 F2400
;WIDTH:0.419999
G1 F1200
G1 X105.491 Y117.069 E.01419
G1 X105.293 Y117.658 E.01948
G1 X104.949 Y118.181 E.01963
G1 X104.574 Y118.503 E.0155
G1 X104.168 Y118.713 E.01433
G1 X103.724 Y118.829 E.01439
G1 X102.961 Y118.859 E.02394
G1 X102.269 Y118.724 E.02211
G1 X101.773 Y118.456 E.01768
G1 X101.548 Y118.203 E.01062
G1 X101.444 Y117.978 E.00777
G1 X101.394 Y117.711 E.00852
G1 X101.419 Y117.442 E.00847
G1 X101.523 Y117.207 E.00806
G1 X101.699 Y117.03 E.00783
G1 X101.985 Y116.904 E.0098
G1 X102.327 Y116.882 E.01075
G1 X102.635 Y116.958 E.00995
G1 X103.249 Y117.342 E.02271
G1 X103.473 Y117.32 E.00706
G1 X103.681 Y117.164 E.00815
G1 X103.798 Y116.95 E.00765
G1 X103.792 Y116.665 E.00894
G1 X103.672 Y116.401 E.00909
G1 X103.392 Y116.133 E.01215
G1 X102.356 Y115.803 E.03409
G1 X102.116 Y115.497 E.01219
G1 X102.082 Y115.11 E.01218
G1 X102.162 Y114.839 E.00886
;WIDTH:0.449053
G1 X102.309 Y114.645 E.00822
;WIDTH:0.478107
G1 X102.456 Y114.452 E.00878
;WIDTH:0.519484
G1 X102.801 Y114.332 E.01447
;WIDTH:0.560861
G1 X103.146 Y114.213 E.01572
;WIDTH:0.561529
G1 X103.346 Y114.105 E.0098
G1 X103.446 Y113.902 E.00976
G1 X103.36 Y113.7 E.00947
G1 X103.144 Y113.67 E.0094
G1 X102.838 Y113.813 E.01457
;WIDTH:0.516738
G1 X102.531 Y113.957 E.01336
;WIDTH:0.471947
G1 X102.274 Y114.05 E.00975
;WIDTH:0.471028
G1 X102.062 Y113.995 E.0078
;WIDTH:0.445514
G1 X101.85 Y113.939 E.00734
;WIDTH:0.419999
G1 X101.636 Y113.762 E.00871
G1 X101.484 Y113.534 E.00859
;WIDTH:0.436255
G1 X101.394 Y113.285 E.00866
;WIDTH:0.439444
G1 X101.402 Y113.018 E.00881
G1 X101.493 Y112.805 E.00764
;WIDTH:0.422064
G1 X101.872 Y112.428 E.01685
;WIDTH:0.419999
G1 X102.488 Y112.156 E.02111
G1 X103.096 Y112.065 E.01928
G1 X103.514 Y112.069 E.01311
G1 X104.103 Y112.166 E.01872
G1 X104.593 Y112.385 E.01683
G1 X104.974 Y112.73 E.01612
G1 X105.172 Y113.076 E.0125
G1 X105.261 Y113.405 E.01069
G1 X105.263 Y113.916 E.01602
G1 X105.143 Y114.434 E.01667
G1 X104.777 Y114.844 E.01723
G1 X104.461 Y115.011 E.01121
G1 X104.794 Y115.156 E.01139
G1 X105.155 Y115.477 E.01515
G1 X105.388 Y116.004 E.01807
G1 X105.507 Y116.557 E.01774
G1 E-3.5 F3600
;WIPE_START
G1 F7200
G1 X105.513 Y116.617 E-.02864
G1 X105.491 Y117.069 E-.21495
G1 X105.293 Y117.658 E-.29516
G1 X104.949 Y118.181 E-.29735
G1 X104.574 Y118.503 E-.23478
G1 X104.168 Y118.713 E-.21712
G1 X103.736 Y118.826 E-.212
;WIPE_END
G1 X100.839 Y113.441 F9000
G1 E5 F2400
;WIDTH:0.422936
G1 F1200
G1 X100.771 Y113.549 E.00403
;WIDTH:0.419999
G1 X100.513 Y113.72 E.0097
G1 X100.016 Y113.812 E.01585
G1 X99.056 Y113.813 E.0301
G1 X99.039 Y114.743 E.02916
G1 X99.052 Y117.855 E.09758
G1 X98.91 Y118.356 E.01633
G1 X98.707 Y118.576 E.00939
G1 X98.484 Y118.683 E.00776
G1 X98.158 Y118.716 E.01027
G1 X97.81 Y118.621 E.01131
G1 X97.563 Y118.407 E.01025
G1 X97.46 Y118.121 E.00953
G1 X97.489 Y117.428 E.02175
G1 X97.473 Y114.649 E.08713
G1 X97.505 Y114.122 E.01655
G1 X97.462 Y113.894 E.00727
G1 X97.233 Y113.798 E.00779
G1 X96.918 Y113.791 E.00988
G1 X96.414 Y113.853 E.01592
G1 X96.038 Y113.791 E.01195
G1 X95.776 Y113.585 E.01045
;WIDTH:0.453627
G1 X95.689 Y113.46 E.0052
;WIDTH:0.487255
G1 X95.602 Y113.334 E.00566
G1 X95.562 Y113.06 E.01023
;WIDTH:0.47208
G1 X95.631 Y112.822 E.00884
;WIDTH:0.44604
G1 X95.701 Y112.585 E.00828
;WIDTH:0.419999
G1 X95.982 Y112.299 E.01257
G1 X96.378 Y112.204 E.01277
G1 X96.987 Y112.246 E.01914
G1 X100.287 Y112.235 E.10347
G1 X100.674 Y112.358 E.01273
G1 X100.897 Y112.643 E.01135
;WIDTH:0.451211
G1 X100.975 Y113.07 E.01474
G1 X100.909 Y113.331 E.00914
;WIDTH:0.422936
G1 X100.871 Y113.39 E.00222
G1 E-3.5 F3600
;WIPE_START
G1 F7200
G1 X100.839 Y113.441 E-.0286
G1 X100.771 Y113.549 E-.06062
G1 X100.513 Y113.72 E-.14702
G1 X100.016 Y113.812 E-.24009
G1 X99.056 Y113.813 E-.456
G1 X99.039 Y114.743 E-.44182
G1 X99.04 Y115.008 E-.12585
;WIPE_END
G1 X95.151 Y113.359 F9000
G1 E5 F2400
;WIDTH:0.473827
G1 F1200
G1 X95.152 Y113.545 E.00666
;WIDTH:0.460766
G1 X95.002 Y113.861 E.01215
;WIDTH:0.419999
G1 X94.775 Y114.076 E.0098
G1 X94.421 Y114.206 E.01182
G1 X94.199 Y114.188 E.00698
G1 X93.959 Y114.109 E.00792
G1 X93.199 Y113.703 E.02702
G1 X92.738 Y113.725 E.01447
G1 X92.414 Y113.873 E.01117
G1 X92.125 Y114.194 E.01354
G1 X91.947 Y114.672 E.01599
G1 X91.933 Y114.818 E.0046
G1 X91.872 Y115.423 E.01907
G1 X91.939 Y116.223 E.02517
G1 X92.126 Y116.74 E.01724
G1 X92.38 Y117.02 E.01185
G1 X92.725 Y117.203 E.01224
G1 X93.123 Y117.244 E.01255
G1 X93.504 Y117.171 E.01216
G1 X93.907 Y116.825 E.01665
G1 X94.31 Y116.731 E.01297
G1 X94.674 Y116.814 E.01171
G1 X94.947 Y116.986 E.01012
G1 X95.134 Y117.268 E.01061
G1 X95.163 Y117.615 E.01092
G1 X94.941 Y118.065 E.01573
G1 X94.726 Y118.313 E.01029
